static/cached/Black_and_White_Drama3.xmp
<?xml version='1.0' encoding='utf-8'?>
<x:xmpmeta xmlns:x="adobe:ns:meta/" x:xmptk="Adobe XMP Core 7.0-c000 1.000000, 0000/00/00-00:00:00"><rdf:RDF xmlns:rdf="http://www.w3.org/1999/02/22-rdf-syntax-ns#"><rdf:Description rdf:about="" xmlns:crs="http://ns.adobe.com/camera-raw-settings/1.0/" crs:PresetType="Normal" crs:Cluster="" crs:UUID="CE6F724A2D1D451288074754A41A68FD" crs:SupportsAmount2="True" crs:SupportsAmount="True" crs:SupportsColor="True" crs:SupportsMonochrome="True" crs:SupportsHighDynamicRange="True" crs:SupportsNormalDynamicRange="True" crs:SupportsSceneReferred="True" crs:SupportsOutputReferred="True" crs:RequiresRGBTables="False" crs:CameraModelRestriction="" crs:Copyright="" crs:ContactInfo="" crs:Version="17.2" crs:ProcessVersion="15.4" crs:ToneCurveName2012="Linear" crs:HasSettings="True" crs:Contrast2012="50" crs:Highlights2012="-40" crs:Shadows2012="40" crs:Whites2012="30" crs:Blacks2012="-60" crs:Texture="10" crs:Clarity2012="40" crs:Dehaze="15" crs:Vibrance="-100" crs:Saturation="-100" crs:ParametricShadows="-20" crs:ParametricDarks="-15" crs:ParametricLights="15" crs:ParametricHighlights="25" crs:ParametricShadowSplit="15" crs:ParametricMidtoneSplit="35" crs:ParametricHighlightSplit="65" crs:Sharpness="60" crs:SharpenRadius="1.2" crs:SharpenDetail="45" crs:SharpenEdgeMasking="60" crs:LuminanceSmoothing="10" crs:ColorNoiseReduction="10" crs:ColorNoiseReductionDetail="50" crs:ColorNoiseReductionSmoothness="50" crs:HueAdjustmentRed="0" crs:HueAdjustmentOrange="0" crs:HueAdjustmentYellow="0" crs:HueAdjustmentGreen="0" crs:HueAdjustmentAqua="0" crs:HueAdjustmentBlue="0" crs:HueAdjustmentPurple="0" crs:HueAdjustmentMagenta="0" crs:SaturationAdjustmentRed="0" crs:SaturationAdjustmentOrange="0" crs:SaturationAdjustmentYellow="0" crs:SaturationAdjustmentGreen="0" crs:SaturationAdjustmentAqua="0" crs:SaturationAdjustmentBlue="0" crs:SaturationAdjustmentPurple="0" crs:SaturationAdjustmentMagenta="0" crs:LuminanceAdjustmentRed="5" crs:LuminanceAdjustmentOrange="10" crs:LuminanceAdjustmentYellow="10" crs:LuminanceAdjustmentGreen="-20" crs:LuminanceAdjustmentAqua="-20" crs:LuminanceAdjustmentBlue="-30" crs:LuminanceAdjustmentPurple="-10" crs:LuminanceAdjustmentMagenta="-10" crs:SplitToningShadowHue="220" crs:SplitToningShadowSaturation="10" crs:SplitToningHighlightHue="10" crs:SplitToningHighlightSaturation="5" crs:SplitToningBalance="0" crs:ColorGradeMidtoneHue="0" crs:ColorGradeMidtoneSat="0" crs:ColorGradeShadowLum="0" crs:ColorGradeMidtoneLum="0" crs:ColorGradeHighlightLum="0" crs:ColorGradeBlending="50" crs:ColorGradeGlobalHue="0" crs:ColorGradeGlobalSat="0" crs:ColorGradeGlobalLum="0" crs:GrainAmount="20" crs:GrainSize="50" crs:GrainFrequency="50" crs:PostCropVignetteAmount="-30" crs:ShadowTint="0" crs:RedHue="0" crs:RedSaturation="0" crs:GreenHue="0" crs:GreenSaturation="0" crs:BlueHue="0" crs:BlueSaturation="0" crs:CurveRefineSaturation="0" crs:OverrideLookVignette="False" crs:Name="Black and White Drama"><crs:ToneCurvePV2012><rdf:Seq><rdf:li>0,0</rdf:li><rdf:li>32,18</rdf:li><rdf:li>64,48</rdf:li><rdf:li>128,128</rdf:li><rdf:li>192,208</rdf:li><rdf:li>255,255</rdf:li></rdf:Seq></crs:ToneCurvePV2012><crs:ToneCurvePV2012Red><rdf:Seq><rdf:li>0,0</rdf:li><rdf:li>255,255</rdf:li></rdf:Seq></crs:ToneCurvePV2012Red><crs:ToneCurvePV2012Green><rdf:Seq><rdf:li>0,0</rdf:li><rdf:li>255,255</rdf:li></rdf:Seq></crs:ToneCurvePV2012Green><crs:ToneCurvePV2012Blue><rdf:Seq><rdf:li>0,0</rdf:li><rdf:li>255,255</rdf:li></rdf:Seq></crs:ToneCurvePV2012Blue><crs:PointColors><rdf:Seq /></crs:PointColors></rdf:Description></rdf:RDF></x:xmpmeta>