static/cached/Black_and_White_Drama1.xmp
<?xml version='1.0' encoding='utf-8'?>
<x:xmpmeta xmlns:x="adobe:ns:meta/" x:xmptk="Adobe XMP Core 7.0-c000 1.000000, 0000/00/00-00:00:00"><rdf:RDF xmlns:rdf="http://www.w3.org/1999/02/22-rdf-syntax-ns#"><rdf:Description rdf:about="" xmlns:crs="http://ns.adobe.com/camera-raw-settings/1.0/" crs:PresetType="Normal" crs:Cluster="" crs:UUID="57E678B3E5A64A1FBFAE095335E68D38" crs:SupportsAmount2="True" crs:SupportsAmount="True" crs:SupportsColor="True" crs:SupportsMonochrome="True" crs:SupportsHighDynamicRange="True" crs:SupportsNormalDynamicRange="True" crs:SupportsSceneReferred="True" crs:SupportsOutputReferred="True" crs:RequiresRGBTables="False" crs:CameraModelRestriction="" crs:Copyright="" crs:ContactInfo="" crs:Version="17.2" crs:ProcessVersion="15.4" crs:ToneCurveName2012="Strong Contrast" crs:HasSettings="True" crs:Contrast2012="60" crs:Highlights2012="-40" crs:Shadows2012="40" crs:Whites2012="10" crs:Blacks2012="-50" crs:Texture="15" crs:Clarity2012="35" crs:Dehaze="8" crs:Vibrance="0" crs:Saturation="-100" crs:ParametricShadows="-20" crs:ParametricDarks="-10" crs:ParametricLights="15" crs:ParametricHighlights="20" crs:ParametricShadowSplit="25" crs:ParametricMidtoneSplit="50" crs:ParametricHighlightSplit="75" crs:Sharpness="40" crs:SharpenRadius="1.2" crs:SharpenDetail="35" crs:SharpenEdgeMasking="60" crs:LuminanceSmoothing="15" crs:ColorNoiseReduction="0" crs:ColorNoiseReductionDetail="0" crs:ColorNoiseReductionSmoothness="0" crs:HueAdjustmentRed="0" crs:HueAdjustmentOrange="0" crs:HueAdjustmentYellow="0" crs:HueAdjustmentGreen="0" crs:HueAdjustmentAqua="0" crs:HueAdjustmentBlue="0" crs:HueAdjustmentPurple="0" crs:HueAdjustmentMagenta="0" crs:SaturationAdjustmentRed="0" crs:SaturationAdjustmentOrange="0" crs:SaturationAdjustmentYellow="0" crs:SaturationAdjustmentGreen="0" crs:SaturationAdjustmentAqua="0" crs:SaturationAdjustmentBlue="0" crs:SaturationAdjustmentPurple="0" crs:SaturationAdjustmentMagenta="0" crs:LuminanceAdjustmentRed="25" crs:LuminanceAdjustmentOrange="15" crs:LuminanceAdjustmentYellow="10" crs:LuminanceAdjustmentGreen="-15" crs:LuminanceAdjustmentAqua="-20" crs:LuminanceAdjustmentBlue="-30" crs:LuminanceAdjustmentPurple="-20" crs:LuminanceAdjustmentMagenta="-10" crs:SplitToningShadowHue="220" crs:SplitToningShadowSaturation="10" crs:SplitToningHighlightHue="40" crs:SplitToningHighlightSaturation="5" crs:SplitToningBalance="-25" crs:ColorGradeMidtoneHue="0" crs:ColorGradeMidtoneSat="0" crs:ColorGradeShadowLum="-10" crs:ColorGradeMidtoneLum="0" crs:ColorGradeHighlightLum="10" crs:ColorGradeBlending="35" crs:ColorGradeGlobalHue="0" crs:ColorGradeGlobalSat="0" crs:ColorGradeGlobalLum="0" crs:GrainAmount="12" crs:GrainSize="32" crs:GrainFrequency="70" crs:PostCropVignetteAmount="-30" crs:ShadowTint="0" crs:RedHue="0" crs:RedSaturation="0" crs:GreenHue="0" crs:GreenSaturation="0" crs:BlueHue="0" crs:BlueSaturation="0" crs:CurveRefineSaturation="0" crs:OverrideLookVignette="False" crs:Name="Black and White Drama"><crs:ToneCurvePV2012><rdf:Seq><rdf:li>0,0</rdf:li><rdf:li>32,12</rdf:li><rdf:li>64,52</rdf:li><rdf:li>128,128</rdf:li><rdf:li>192,210</rdf:li><rdf:li>255,255</rdf:li></rdf:Seq></crs:ToneCurvePV2012><crs:ToneCurvePV2012Red><rdf:Seq><rdf:li>0,0</rdf:li><rdf:li>255,255</rdf:li></rdf:Seq></crs:ToneCurvePV2012Red><crs:ToneCurvePV2012Green><rdf:Seq><rdf:li>0,0</rdf:li><rdf:li>255,255</rdf:li></rdf:Seq></crs:ToneCurvePV2012Green><crs:ToneCurvePV2012Blue><rdf:Seq><rdf:li>0,0</rdf:li><rdf:li>255,255</rdf:li></rdf:Seq></crs:ToneCurvePV2012Blue><crs:PointColors><rdf:Seq /></crs:PointColors></rdf:Description></rdf:RDF></x:xmpmeta>