static/cached/Bright_Wedding1.xmp
<?xml version='1.0' encoding='utf-8'?>
<x:xmpmeta xmlns:x="adobe:ns:meta/" x:xmptk="Adobe XMP Core 7.0-c000 1.000000, 0000/00/00-00:00:00"><rdf:RDF xmlns:rdf="http://www.w3.org/1999/02/22-rdf-syntax-ns#"><rdf:Description rdf:about="" xmlns:crs="http://ns.adobe.com/camera-raw-settings/1.0/" crs:PresetType="Normal" crs:Cluster="" crs:UUID="FD69BF0186AB41E4A5D8EFCAF3119C3E" crs:SupportsAmount2="True" crs:SupportsAmount="True" crs:SupportsColor="True" crs:SupportsMonochrome="True" crs:SupportsHighDynamicRange="True" crs:SupportsNormalDynamicRange="True" crs:SupportsSceneReferred="True" crs:SupportsOutputReferred="True" crs:RequiresRGBTables="False" crs:CameraModelRestriction="" crs:Copyright="" crs:ContactInfo="" crs:Version="17.2" crs:ProcessVersion="15.4" crs:ToneCurveName2012="Linear" crs:HasSettings="True" crs:Contrast2012="15" crs:Highlights2012="-35" crs:Shadows2012="40" crs:Whites2012="30" crs:Blacks2012="-20" crs:Texture="10" crs:Clarity2012="8" crs:Dehaze="0" crs:Vibrance="20" crs:Saturation="8" crs:ParametricShadows="5" crs:ParametricDarks="0" crs:ParametricLights="6" crs:ParametricHighlights="4" crs:ParametricShadowSplit="25" crs:ParametricMidtoneSplit="50" crs:ParametricHighlightSplit="75" crs:Sharpness="40" crs:SharpenRadius="1.0" crs:SharpenDetail="25" crs:SharpenEdgeMasking="10" crs:LuminanceSmoothing="15" crs:ColorNoiseReduction="12" crs:ColorNoiseReductionDetail="50" crs:ColorNoiseReductionSmoothness="50" crs:HueAdjustmentRed="0" crs:HueAdjustmentOrange="-3" crs:HueAdjustmentYellow="5" crs:HueAdjustmentGreen="0" crs:HueAdjustmentAqua="0" crs:HueAdjustmentBlue="-5" crs:HueAdjustmentPurple="0" crs:HueAdjustmentMagenta="3" crs:SaturationAdjustmentRed="5" crs:SaturationAdjustmentOrange="10" crs:SaturationAdjustmentYellow="15" crs:SaturationAdjustmentGreen="-10" crs:SaturationAdjustmentAqua="-15" crs:SaturationAdjustmentBlue="-12" crs:SaturationAdjustmentPurple="0" crs:SaturationAdjustmentMagenta="8" crs:LuminanceAdjustmentRed="0" crs:LuminanceAdjustmentOrange="10" crs:LuminanceAdjustmentYellow="12" crs:LuminanceAdjustmentGreen="0" crs:LuminanceAdjustmentAqua="5" crs:LuminanceAdjustmentBlue="10" crs:LuminanceAdjustmentPurple="2" crs:LuminanceAdjustmentMagenta="2" crs:SplitToningShadowHue="40" crs:SplitToningShadowSaturation="10" crs:SplitToningHighlightHue="50" crs:SplitToningHighlightSaturation="18" crs:SplitToningBalance="40" crs:ColorGradeMidtoneHue="20" crs:ColorGradeMidtoneSat="8" crs:ColorGradeShadowLum="0" crs:ColorGradeMidtoneLum="5" crs:ColorGradeHighlightLum="10" crs:ColorGradeBlending="60" crs:ColorGradeGlobalHue="40" crs:ColorGradeGlobalSat="5" crs:ColorGradeGlobalLum="2" crs:GrainAmount="0" crs:GrainSize="0" crs:GrainFrequency="0" crs:PostCropVignetteAmount="15" crs:ShadowTint="0" crs:RedHue="0" crs:RedSaturation="5" crs:GreenHue="0" crs:GreenSaturation="0" crs:BlueHue="0" crs:BlueSaturation="0" crs:CurveRefineSaturation="0" crs:OverrideLookVignette="False" crs:Name="Bright Wedding"><crs:ToneCurvePV2012><rdf:Seq><rdf:li>0,0</rdf:li><rdf:li>32,30</rdf:li><rdf:li>64,60</rdf:li><rdf:li>128,128</rdf:li><rdf:li>192,200</rdf:li><rdf:li>255,255</rdf:li></rdf:Seq></crs:ToneCurvePV2012><crs:ToneCurvePV2012Red><rdf:Seq><rdf:li>0,0</rdf:li><rdf:li>255,255</rdf:li></rdf:Seq></crs:ToneCurvePV2012Red><crs:ToneCurvePV2012Green><rdf:Seq><rdf:li>0,0</rdf:li><rdf:li>255,255</rdf:li></rdf:Seq></crs:ToneCurvePV2012Green><crs:ToneCurvePV2012Blue><rdf:Seq><rdf:li>0,0</rdf:li><rdf:li>255,255</rdf:li></rdf:Seq></crs:ToneCurvePV2012Blue><crs:PointColors><rdf:Seq /></crs:PointColors></rdf:Description></rdf:RDF></x:xmpmeta>