static/cached/Bright_Wedding3.xmp
<?xml version='1.0' encoding='utf-8'?>
<x:xmpmeta xmlns:x="adobe:ns:meta/" x:xmptk="Adobe XMP Core 7.0-c000 1.000000, 0000/00/00-00:00:00"><rdf:RDF xmlns:rdf="http://www.w3.org/1999/02/22-rdf-syntax-ns#"><rdf:Description rdf:about="" xmlns:crs="http://ns.adobe.com/camera-raw-settings/1.0/" crs:PresetType="Normal" crs:Cluster="" crs:UUID="FD97DD66037540C89BB2BD3F35AE8DE7" crs:SupportsAmount2="True" crs:SupportsAmount="True" crs:SupportsColor="True" crs:SupportsMonochrome="True" crs:SupportsHighDynamicRange="True" crs:SupportsNormalDynamicRange="True" crs:SupportsSceneReferred="True" crs:SupportsOutputReferred="True" crs:RequiresRGBTables="False" crs:CameraModelRestriction="" crs:Copyright="" crs:ContactInfo="" crs:Version="17.2" crs:ProcessVersion="15.4" crs:ToneCurveName2012="Medium Contrast" crs:HasSettings="True" crs:Contrast2012="10" crs:Highlights2012="-30" crs:Shadows2012="35" crs:Whites2012="30" crs:Blacks2012="-20" crs:Texture="10" crs:Clarity2012="5" crs:Dehaze="0" crs:Vibrance="20" crs:Saturation="8" crs:ParametricShadows="10" crs:ParametricDarks="0" crs:ParametricLights="10" crs:ParametricHighlights="5" crs:ParametricShadowSplit="25" crs:ParametricMidtoneSplit="50" crs:ParametricHighlightSplit="75" crs:Sharpness="40" crs:SharpenRadius="1.2" crs:SharpenDetail="30" crs:SharpenEdgeMasking="10" crs:LuminanceSmoothing="10" crs:ColorNoiseReduction="12" crs:ColorNoiseReductionDetail="50" crs:ColorNoiseReductionSmoothness="50" crs:HueAdjustmentRed="0" crs:HueAdjustmentOrange="0" crs:HueAdjustmentYellow="2" crs:HueAdjustmentGreen="-5" crs:HueAdjustmentAqua="0" crs:HueAdjustmentBlue="5" crs:HueAdjustmentPurple="0" crs:HueAdjustmentMagenta="0" crs:SaturationAdjustmentRed="-5" crs:SaturationAdjustmentOrange="8" crs:SaturationAdjustmentYellow="14" crs:SaturationAdjustmentGreen="-20" crs:SaturationAdjustmentAqua="-10" crs:SaturationAdjustmentBlue="-5" crs:SaturationAdjustmentPurple="0" crs:SaturationAdjustmentMagenta="8" crs:LuminanceAdjustmentRed="10" crs:LuminanceAdjustmentOrange="8" crs:LuminanceAdjustmentYellow="12" crs:LuminanceAdjustmentGreen="0" crs:LuminanceAdjustmentAqua="0" crs:LuminanceAdjustmentBlue="12" crs:LuminanceAdjustmentPurple="0" crs:LuminanceAdjustmentMagenta="0" crs:SplitToningShadowHue="45" crs:SplitToningShadowSaturation="5" crs:SplitToningHighlightHue="50" crs:SplitToningHighlightSaturation="9" crs:SplitToningBalance="40" crs:ColorGradeMidtoneHue="0" crs:ColorGradeMidtoneSat="0" crs:ColorGradeShadowLum="0" crs:ColorGradeMidtoneLum="0" crs:ColorGradeHighlightLum="8" crs:ColorGradeBlending="50" crs:ColorGradeGlobalHue="0" crs:ColorGradeGlobalSat="0" crs:ColorGradeGlobalLum="0" crs:GrainAmount="0" crs:GrainSize="0" crs:GrainFrequency="0" crs:PostCropVignetteAmount="10" crs:ShadowTint="0" crs:RedHue="0" crs:RedSaturation="0" crs:GreenHue="0" crs:GreenSaturation="0" crs:BlueHue="0" crs:BlueSaturation="0" crs:CurveRefineSaturation="0" crs:OverrideLookVignette="False" crs:Name="Bright Wedding"><crs:ToneCurvePV2012><rdf:Seq><rdf:li>0, 0</rdf:li><rdf:li>32, 22</rdf:li><rdf:li>64, 56</rdf:li><rdf:li>128, 128</rdf:li><rdf:li>192, 196</rdf:li><rdf:li>255, 255</rdf:li></rdf:Seq></crs:ToneCurvePV2012><crs:ToneCurvePV2012Red><rdf:Seq><rdf:li>0, 0</rdf:li><rdf:li>32, 24</rdf:li><rdf:li>64, 56</rdf:li><rdf:li>128, 128</rdf:li><rdf:li>192, 196</rdf:li><rdf:li>255, 255</rdf:li></rdf:Seq></crs:ToneCurvePV2012Red><crs:ToneCurvePV2012Green><rdf:Seq><rdf:li>0, 0</rdf:li><rdf:li>32, 22</rdf:li><rdf:li>64, 56</rdf:li><rdf:li>128, 128</rdf:li><rdf:li>192, 196</rdf:li><rdf:li>255, 255</rdf:li></rdf:Seq></crs:ToneCurvePV2012Green><crs:ToneCurvePV2012Blue><rdf:Seq><rdf:li>0, 0</rdf:li><rdf:li>32, 26</rdf:li><rdf:li>64, 58</rdf:li><rdf:li>128, 128</rdf:li><rdf:li>192, 204</rdf:li><rdf:li>255, 255</rdf:li></rdf:Seq></crs:ToneCurvePV2012Blue><crs:PointColors><rdf:Seq /></crs:PointColors></rdf:Description></rdf:RDF></x:xmpmeta>