static/cached/Bright_Wedding.xmp
<?xml version='1.0' encoding='utf-8'?>
<x:xmpmeta xmlns:x="adobe:ns:meta/" x:xmptk="Adobe XMP Core 7.0-c000 1.000000, 0000/00/00-00:00:00"><rdf:RDF xmlns:rdf="http://www.w3.org/1999/02/22-rdf-syntax-ns#"><rdf:Description rdf:about="" xmlns:crs="http://ns.adobe.com/camera-raw-settings/1.0/" crs:PresetType="Normal" crs:Cluster="" crs:UUID="79B4CB2100E74D338EE7EF35A956572C" crs:SupportsAmount2="True" crs:SupportsAmount="True" crs:SupportsColor="True" crs:SupportsMonochrome="True" crs:SupportsHighDynamicRange="True" crs:SupportsNormalDynamicRange="True" crs:SupportsSceneReferred="True" crs:SupportsOutputReferred="True" crs:RequiresRGBTables="False" crs:CameraModelRestriction="" crs:Copyright="" crs:ContactInfo="" crs:Version="17.2" crs:ProcessVersion="15.4" crs:ToneCurveName2012="Medium Contrast" crs:HasSettings="True" crs:Contrast2012="10" crs:Highlights2012="-30" crs:Shadows2012="40" crs:Whites2012="25" crs:Blacks2012="-20" crs:Texture="10" crs:Clarity2012="12" crs:Dehaze="0" crs:Vibrance="18" crs:Saturation="8" crs:ParametricShadows="5" crs:ParametricDarks="0" crs:ParametricLights="10" crs:ParametricHighlights="5" crs:ParametricShadowSplit="25" crs:ParametricMidtoneSplit="50" crs:ParametricHighlightSplit="75" crs:Sharpness="35" crs:SharpenRadius="1.2" crs:SharpenDetail="28" crs:SharpenEdgeMasking="0" crs:LuminanceSmoothing="15" crs:ColorNoiseReduction="15" crs:ColorNoiseReductionDetail="50" crs:ColorNoiseReductionSmoothness="50" crs:HueAdjustmentRed="0" crs:HueAdjustmentOrange="-4" crs:HueAdjustmentYellow="2" crs:HueAdjustmentGreen="-6" crs:HueAdjustmentAqua="0" crs:HueAdjustmentBlue="0" crs:HueAdjustmentPurple="0" crs:HueAdjustmentMagenta="0" crs:SaturationAdjustmentRed="-3" crs:SaturationAdjustmentOrange="10" crs:SaturationAdjustmentYellow="10" crs:SaturationAdjustmentGreen="-10" crs:SaturationAdjustmentAqua="0" crs:SaturationAdjustmentBlue="-6" crs:SaturationAdjustmentPurple="0" crs:SaturationAdjustmentMagenta="0" crs:LuminanceAdjustmentRed="6" crs:LuminanceAdjustmentOrange="10" crs:LuminanceAdjustmentYellow="15" crs:LuminanceAdjustmentGreen="0" crs:LuminanceAdjustmentAqua="0" crs:LuminanceAdjustmentBlue="10" crs:LuminanceAdjustmentPurple="0" crs:LuminanceAdjustmentMagenta="0" crs:SplitToningShadowHue="42" crs:SplitToningShadowSaturation="7" crs:SplitToningHighlightHue="53" crs:SplitToningHighlightSaturation="12" crs:SplitToningBalance="22" crs:ColorGradeMidtoneHue="50" crs:ColorGradeMidtoneSat="7" crs:ColorGradeShadowLum="0" crs:ColorGradeMidtoneLum="4" crs:ColorGradeHighlightLum="6" crs:ColorGradeBlending="76" crs:ColorGradeGlobalHue="0" crs:ColorGradeGlobalSat="0" crs:ColorGradeGlobalLum="0" crs:GrainAmount="0" crs:GrainSize="0" crs:GrainFrequency="0" crs:PostCropVignetteAmount="8" crs:ShadowTint="0" crs:RedHue="0" crs:RedSaturation="0" crs:GreenHue="0" crs:GreenSaturation="0" crs:BlueHue="0" crs:BlueSaturation="0" crs:CurveRefineSaturation="0" crs:OverrideLookVignette="False" crs:Name="Bright Wedding"><crs:ToneCurvePV2012><rdf:Seq><rdf:li>0,0</rdf:li><rdf:li>32,26</rdf:li><rdf:li>64,56</rdf:li><rdf:li>128,128</rdf:li><rdf:li>192,196</rdf:li><rdf:li>255,255</rdf:li></rdf:Seq></crs:ToneCurvePV2012><crs:ToneCurvePV2012Red><rdf:Seq><rdf:li>0,0</rdf:li><rdf:li>32,26</rdf:li><rdf:li>64,56</rdf:li><rdf:li>128,128</rdf:li><rdf:li>192,196</rdf:li><rdf:li>255,255</rdf:li></rdf:Seq></crs:ToneCurvePV2012Red><crs:ToneCurvePV2012Green><rdf:Seq><rdf:li>0,0</rdf:li><rdf:li>32,29</rdf:li><rdf:li>64,59</rdf:li><rdf:li>128,128</rdf:li><rdf:li>192,194</rdf:li><rdf:li>255,255</rdf:li></rdf:Seq></crs:ToneCurvePV2012Green><crs:ToneCurvePV2012Blue><rdf:Seq><rdf:li>0,0</rdf:li><rdf:li>32,32</rdf:li><rdf:li>64,64</rdf:li><rdf:li>128,128</rdf:li><rdf:li>192,208</rdf:li><rdf:li>255,255</rdf:li></rdf:Seq></crs:ToneCurvePV2012Blue><crs:PointColors><rdf:Seq /></crs:PointColors></rdf:Description></rdf:RDF></x:xmpmeta>