static/cached/Cinematic_Film_Look2.xmp
<?xml version='1.0' encoding='utf-8'?>
<x:xmpmeta xmlns:x="adobe:ns:meta/" x:xmptk="Adobe XMP Core 7.0-c000 1.000000, 0000/00/00-00:00:00"><rdf:RDF xmlns:rdf="http://www.w3.org/1999/02/22-rdf-syntax-ns#"><rdf:Description rdf:about="" xmlns:crs="http://ns.adobe.com/camera-raw-settings/1.0/" crs:PresetType="Normal" crs:Cluster="" crs:UUID="B5F6453356644643978BED9502B38CB7" crs:SupportsAmount2="True" crs:SupportsAmount="True" crs:SupportsColor="True" crs:SupportsMonochrome="True" crs:SupportsHighDynamicRange="True" crs:SupportsNormalDynamicRange="True" crs:SupportsSceneReferred="True" crs:SupportsOutputReferred="True" crs:RequiresRGBTables="False" crs:CameraModelRestriction="" crs:Copyright="" crs:ContactInfo="" crs:Version="17.2" crs:ProcessVersion="15.4" crs:ToneCurveName2012="Medium Contrast" crs:HasSettings="True" crs:Contrast2012="30" crs:Highlights2012="-40" crs:Shadows2012="40" crs:Whites2012="15" crs:Blacks2012="-20" crs:Texture="10" crs:Clarity2012="18" crs:Dehaze="10" crs:Vibrance="20" crs:Saturation="-8" crs:ParametricShadows="0" crs:ParametricDarks="-15" crs:ParametricLights="10" crs:ParametricHighlights="5" crs:ParametricShadowSplit="25" crs:ParametricMidtoneSplit="50" crs:ParametricHighlightSplit="75" crs:Sharpness="30" crs:SharpenRadius="1.1" crs:SharpenDetail="18" crs:SharpenEdgeMasking="30" crs:LuminanceSmoothing="9" crs:ColorNoiseReduction="15" crs:ColorNoiseReductionDetail="50" crs:ColorNoiseReductionSmoothness="50" crs:HueAdjustmentRed="0" crs:HueAdjustmentOrange="-6" crs:HueAdjustmentYellow="-16" crs:HueAdjustmentGreen="0" crs:HueAdjustmentAqua="10" crs:HueAdjustmentBlue="-12" crs:HueAdjustmentPurple="0" crs:HueAdjustmentMagenta="0" crs:SaturationAdjustmentRed="-5" crs:SaturationAdjustmentOrange="-10" crs:SaturationAdjustmentYellow="-22" crs:SaturationAdjustmentGreen="-32" crs:SaturationAdjustmentAqua="-17" crs:SaturationAdjustmentBlue="-20" crs:SaturationAdjustmentPurple="-20" crs:SaturationAdjustmentMagenta="0" crs:LuminanceAdjustmentRed="0" crs:LuminanceAdjustmentOrange="9" crs:LuminanceAdjustmentYellow="5" crs:LuminanceAdjustmentGreen="0" crs:LuminanceAdjustmentAqua="-6" crs:LuminanceAdjustmentBlue="-10" crs:LuminanceAdjustmentPurple="0" crs:LuminanceAdjustmentMagenta="0" crs:SplitToningShadowHue="220" crs:SplitToningShadowSaturation="18" crs:SplitToningHighlightHue="45" crs:SplitToningHighlightSaturation="12" crs:SplitToningBalance="-10" crs:ColorGradeMidtoneHue="40" crs:ColorGradeMidtoneSat="12" crs:ColorGradeShadowLum="-10" crs:ColorGradeMidtoneLum="0" crs:ColorGradeHighlightLum="5" crs:ColorGradeBlending="40" crs:ColorGradeGlobalHue="0" crs:ColorGradeGlobalSat="0" crs:ColorGradeGlobalLum="0" crs:GrainAmount="24" crs:GrainSize="37" crs:GrainFrequency="50" crs:PostCropVignetteAmount="-22" crs:ShadowTint="0" crs:RedHue="0" crs:RedSaturation="0" crs:GreenHue="0" crs:GreenSaturation="0" crs:BlueHue="0" crs:BlueSaturation="0" crs:CurveRefineSaturation="0" crs:OverrideLookVignette="False" crs:Name="Cinematic Film Look"><crs:ToneCurvePV2012><rdf:Seq><rdf:li>0,0</rdf:li><rdf:li>43,34</rdf:li><rdf:li>101,91</rdf:li><rdf:li>198,215</rdf:li><rdf:li>255,255</rdf:li></rdf:Seq></crs:ToneCurvePV2012><crs:ToneCurvePV2012Red><rdf:Seq><rdf:li>0,0</rdf:li><rdf:li>50,44</rdf:li><rdf:li>120,130</rdf:li><rdf:li>255,255</rdf:li></rdf:Seq></crs:ToneCurvePV2012Red><crs:ToneCurvePV2012Green><rdf:Seq><rdf:li>0,0</rdf:li><rdf:li>40,32</rdf:li><rdf:li>128,128</rdf:li><rdf:li>255,255</rdf:li></rdf:Seq></crs:ToneCurvePV2012Green><crs:ToneCurvePV2012Blue><rdf:Seq><rdf:li>0,16</rdf:li><rdf:li>88,88</rdf:li><rdf:li>175,176</rdf:li><rdf:li>255,255</rdf:li></rdf:Seq></crs:ToneCurvePV2012Blue><crs:PointColors><rdf:Seq /></crs:PointColors></rdf:Description></rdf:RDF></x:xmpmeta>