static/cached/Cinematic_Film_Look1.xmp
<?xml version='1.0' encoding='utf-8'?>
<x:xmpmeta xmlns:x="adobe:ns:meta/" x:xmptk="Adobe XMP Core 7.0-c000 1.000000, 0000/00/00-00:00:00"><rdf:RDF xmlns:rdf="http://www.w3.org/1999/02/22-rdf-syntax-ns#"><rdf:Description rdf:about="" xmlns:crs="http://ns.adobe.com/camera-raw-settings/1.0/" crs:PresetType="Normal" crs:Cluster="" crs:UUID="165EB7221EE2454CBB7CF95AF2F30CA4" crs:SupportsAmount2="True" crs:SupportsAmount="True" crs:SupportsColor="True" crs:SupportsMonochrome="True" crs:SupportsHighDynamicRange="True" crs:SupportsNormalDynamicRange="True" crs:SupportsSceneReferred="True" crs:SupportsOutputReferred="True" crs:RequiresRGBTables="False" crs:CameraModelRestriction="" crs:Copyright="" crs:ContactInfo="" crs:Version="17.2" crs:ProcessVersion="15.4" crs:ToneCurveName2012="Medium Contrast" crs:HasSettings="True" crs:Contrast2012="25" crs:Highlights2012="-40" crs:Shadows2012="40" crs:Whites2012="15" crs:Blacks2012="-30" crs:Texture="0" crs:Clarity2012="15" crs:Dehaze="5" crs:Vibrance="20" crs:Saturation="-10" crs:ParametricShadows="10" crs:ParametricDarks="0" crs:ParametricLights="10" crs:ParametricHighlights="-10" crs:ParametricShadowSplit="25" crs:ParametricMidtoneSplit="50" crs:ParametricHighlightSplit="75" crs:Sharpness="40" crs:SharpenRadius="1.0" crs:SharpenDetail="25" crs:SharpenEdgeMasking="40" crs:LuminanceSmoothing="15" crs:ColorNoiseReduction="10" crs:ColorNoiseReductionDetail="50" crs:ColorNoiseReductionSmoothness="50" crs:HueAdjustmentRed="0" crs:HueAdjustmentOrange="-10" crs:HueAdjustmentYellow="-20" crs:HueAdjustmentGreen="-30" crs:HueAdjustmentAqua="0" crs:HueAdjustmentBlue="10" crs:HueAdjustmentPurple="0" crs:HueAdjustmentMagenta="0" crs:SaturationAdjustmentRed="-10" crs:SaturationAdjustmentOrange="-10" crs:SaturationAdjustmentYellow="-25" crs:SaturationAdjustmentGreen="-40" crs:SaturationAdjustmentAqua="-10" crs:SaturationAdjustmentBlue="-25" crs:SaturationAdjustmentPurple="10" crs:SaturationAdjustmentMagenta="10" crs:LuminanceAdjustmentRed="10" crs:LuminanceAdjustmentOrange="15" crs:LuminanceAdjustmentYellow="10" crs:LuminanceAdjustmentGreen="0" crs:LuminanceAdjustmentAqua="0" crs:LuminanceAdjustmentBlue="20" crs:LuminanceAdjustmentPurple="0" crs:LuminanceAdjustmentMagenta="0" crs:SplitToningShadowHue="225" crs:SplitToningShadowSaturation="15" crs:SplitToningHighlightHue="50" crs:SplitToningHighlightSaturation="10" crs:SplitToningBalance="-20" crs:ColorGradeMidtoneHue="40" crs:ColorGradeMidtoneSat="7" crs:ColorGradeShadowLum="-10" crs:ColorGradeMidtoneLum="5" crs:ColorGradeHighlightLum="8" crs:ColorGradeBlending="50" crs:ColorGradeGlobalHue="0" crs:ColorGradeGlobalSat="0" crs:ColorGradeGlobalLum="0" crs:GrainAmount="20" crs:GrainSize="30" crs:GrainFrequency="50" crs:PostCropVignetteAmount="-20" crs:ShadowTint="20" crs:RedHue="0" crs:RedSaturation="0" crs:GreenHue="0" crs:GreenSaturation="0" crs:BlueHue="0" crs:BlueSaturation="0" crs:CurveRefineSaturation="0" crs:OverrideLookVignette="False" crs:Name="Cinematic Film Look"><crs:ToneCurvePV2012><rdf:Seq><rdf:li>0,0</rdf:li><rdf:li>32,18</rdf:li><rdf:li>64,56</rdf:li><rdf:li>128,128</rdf:li><rdf:li>192,196</rdf:li><rdf:li>255,255</rdf:li></rdf:Seq></crs:ToneCurvePV2012><crs:ToneCurvePV2012Red><rdf:Seq><rdf:li>0,0</rdf:li><rdf:li>32,28</rdf:li><rdf:li>64,56</rdf:li><rdf:li>128,128</rdf:li><rdf:li>192,200</rdf:li><rdf:li>255,255</rdf:li></rdf:Seq></crs:ToneCurvePV2012Red><crs:ToneCurvePV2012Green><rdf:Seq><rdf:li>0,0</rdf:li><rdf:li>32,24</rdf:li><rdf:li>64,52</rdf:li><rdf:li>128,128</rdf:li><rdf:li>192,196</rdf:li><rdf:li>255,255</rdf:li></rdf:Seq></crs:ToneCurvePV2012Green><crs:ToneCurvePV2012Blue><rdf:Seq><rdf:li>0,12</rdf:li><rdf:li>32,38</rdf:li><rdf:li>64,72</rdf:li><rdf:li>128,128</rdf:li><rdf:li>192,180</rdf:li><rdf:li>255,245</rdf:li></rdf:Seq></crs:ToneCurvePV2012Blue><crs:PointColors><rdf:Seq /></crs:PointColors></rdf:Description></rdf:RDF></x:xmpmeta>