static/cached/Cinematic_Film_Look3.xmp
<?xml version='1.0' encoding='utf-8'?>
<x:xmpmeta xmlns:x="adobe:ns:meta/" x:xmptk="Adobe XMP Core 7.0-c000 1.000000, 0000/00/00-00:00:00"><rdf:RDF xmlns:rdf="http://www.w3.org/1999/02/22-rdf-syntax-ns#"><rdf:Description rdf:about="" xmlns:crs="http://ns.adobe.com/camera-raw-settings/1.0/" crs:PresetType="Normal" crs:Cluster="" crs:UUID="F77FE4F0866741B6909DC9B9BAD11829" crs:SupportsAmount2="True" crs:SupportsAmount="True" crs:SupportsColor="True" crs:SupportsMonochrome="True" crs:SupportsHighDynamicRange="True" crs:SupportsNormalDynamicRange="True" crs:SupportsSceneReferred="True" crs:SupportsOutputReferred="True" crs:RequiresRGBTables="False" crs:CameraModelRestriction="" crs:Copyright="" crs:ContactInfo="" crs:Version="17.2" crs:ProcessVersion="15.4" crs:ToneCurveName2012="Medium Contrast" crs:HasSettings="True" crs:Contrast2012="25" crs:Highlights2012="-40" crs:Shadows2012="25" crs:Whites2012="10" crs:Blacks2012="-30" crs:Texture="10" crs:Clarity2012="15" crs:Dehaze="5" crs:Vibrance="10" crs:Saturation="-5" crs:ParametricShadows="10" crs:ParametricDarks="5" crs:ParametricLights="0" crs:ParametricHighlights="-10" crs:ParametricShadowSplit="30" crs:ParametricMidtoneSplit="55" crs:ParametricHighlightSplit="75" crs:Sharpness="45" crs:SharpenRadius="1.1" crs:SharpenDetail="20" crs:SharpenEdgeMasking="60" crs:LuminanceSmoothing="15" crs:ColorNoiseReduction="18" crs:ColorNoiseReductionDetail="50" crs:ColorNoiseReductionSmoothness="50" crs:HueAdjustmentRed="0" crs:HueAdjustmentOrange="-6" crs:HueAdjustmentYellow="8" crs:HueAdjustmentGreen="-20" crs:HueAdjustmentAqua="-10" crs:HueAdjustmentBlue="15" crs:HueAdjustmentPurple="0" crs:HueAdjustmentMagenta="0" crs:SaturationAdjustmentRed="-5" crs:SaturationAdjustmentOrange="-10" crs:SaturationAdjustmentYellow="-25" crs:SaturationAdjustmentGreen="-30" crs:SaturationAdjustmentAqua="-20" crs:SaturationAdjustmentBlue="-10" crs:SaturationAdjustmentPurple="0" crs:SaturationAdjustmentMagenta="0" crs:LuminanceAdjustmentRed="0" crs:LuminanceAdjustmentOrange="10" crs:LuminanceAdjustmentYellow="10" crs:LuminanceAdjustmentGreen="8" crs:LuminanceAdjustmentAqua="5" crs:LuminanceAdjustmentBlue="-15" crs:LuminanceAdjustmentPurple="0" crs:LuminanceAdjustmentMagenta="0" crs:SplitToningShadowHue="225" crs:SplitToningShadowSaturation="20" crs:SplitToningHighlightHue="50" crs:SplitToningHighlightSaturation="18" crs:SplitToningBalance="-20" crs:ColorGradeMidtoneHue="40" crs:ColorGradeMidtoneSat="14" crs:ColorGradeShadowLum="-10" crs:ColorGradeMidtoneLum="10" crs:ColorGradeHighlightLum="10" crs:ColorGradeBlending="50" crs:ColorGradeGlobalHue="0" crs:ColorGradeGlobalSat="0" crs:ColorGradeGlobalLum="0" crs:GrainAmount="22" crs:GrainSize="32" crs:GrainFrequency="58" crs:PostCropVignetteAmount="-18" crs:ShadowTint="0" crs:RedHue="0" crs:RedSaturation="0" crs:GreenHue="0" crs:GreenSaturation="0" crs:BlueHue="0" crs:BlueSaturation="0" crs:CurveRefineSaturation="0" crs:OverrideLookVignette="False" crs:Name="Cinematic Film Look"><crs:ToneCurvePV2012><rdf:Seq><rdf:li>0,0</rdf:li><rdf:li>65,52</rdf:li><rdf:li>128,118</rdf:li><rdf:li>192,196</rdf:li><rdf:li>255,255</rdf:li></rdf:Seq></crs:ToneCurvePV2012><crs:ToneCurvePV2012Red><rdf:Seq><rdf:li>0,10</rdf:li><rdf:li>65,50</rdf:li><rdf:li>128,120</rdf:li><rdf:li>192,198</rdf:li><rdf:li>255,245</rdf:li></rdf:Seq></crs:ToneCurvePV2012Red><crs:ToneCurvePV2012Green><rdf:Seq><rdf:li>0,0</rdf:li><rdf:li>65,49</rdf:li><rdf:li>128,118</rdf:li><rdf:li>192,194</rdf:li><rdf:li>255,255</rdf:li></rdf:Seq></crs:ToneCurvePV2012Green><crs:ToneCurvePV2012Blue><rdf:Seq><rdf:li>0,20</rdf:li><rdf:li>65,60</rdf:li><rdf:li>128,120</rdf:li><rdf:li>192,200</rdf:li><rdf:li>255,245</rdf:li></rdf:Seq></crs:ToneCurvePV2012Blue><crs:PointColors><rdf:Seq /></crs:PointColors></rdf:Description></rdf:RDF></x:xmpmeta>