static/cached/Fujifilm_Pro_400H_Look2.xmp
<?xml version='1.0' encoding='utf-8'?>
<x:xmpmeta xmlns:x="adobe:ns:meta/" x:xmptk="Adobe XMP Core 7.0-c000 1.000000, 0000/00/00-00:00:00"><rdf:RDF xmlns:rdf="http://www.w3.org/1999/02/22-rdf-syntax-ns#"><rdf:Description rdf:about="" xmlns:crs="http://ns.adobe.com/camera-raw-settings/1.0/" crs:PresetType="Normal" crs:Cluster="" crs:UUID="1C36D809C74F4949B933FAE28ABC68C5" crs:SupportsAmount2="True" crs:SupportsAmount="True" crs:SupportsColor="True" crs:SupportsMonochrome="True" crs:SupportsHighDynamicRange="True" crs:SupportsNormalDynamicRange="True" crs:SupportsSceneReferred="True" crs:SupportsOutputReferred="True" crs:RequiresRGBTables="False" crs:CameraModelRestriction="" crs:Copyright="" crs:ContactInfo="" crs:Version="17.2" crs:ProcessVersion="15.4" crs:ToneCurveName2012="Custom" crs:HasSettings="True" crs:Contrast2012="0" crs:Highlights2012="-20" crs:Shadows2012="20" crs:Whites2012="10" crs:Blacks2012="-5" crs:Texture="0" crs:Clarity2012="0" crs:Dehaze="0" crs:Vibrance="10" crs:Saturation="-4" crs:ParametricShadows="0" crs:ParametricDarks="0" crs:ParametricLights="0" crs:ParametricHighlights="0" crs:ParametricShadowSplit="25" crs:ParametricMidtoneSplit="50" crs:ParametricHighlightSplit="75" crs:Sharpness="40" crs:SharpenRadius="1.0" crs:SharpenDetail="20" crs:SharpenEdgeMasking="20" crs:LuminanceSmoothing="10" crs:ColorNoiseReduction="12" crs:ColorNoiseReductionDetail="30" crs:ColorNoiseReductionSmoothness="50" crs:HueAdjustmentRed="5" crs:HueAdjustmentOrange="6" crs:HueAdjustmentYellow="10" crs:HueAdjustmentGreen="-8" crs:HueAdjustmentAqua="-5" crs:HueAdjustmentBlue="-10" crs:HueAdjustmentPurple="0" crs:HueAdjustmentMagenta="0" crs:SaturationAdjustmentRed="-10" crs:SaturationAdjustmentOrange="-5" crs:SaturationAdjustmentYellow="-8" crs:SaturationAdjustmentGreen="-10" crs:SaturationAdjustmentAqua="-14" crs:SaturationAdjustmentBlue="-18" crs:SaturationAdjustmentPurple="-8" crs:SaturationAdjustmentMagenta="-10" crs:LuminanceAdjustmentRed="0" crs:LuminanceAdjustmentOrange="6" crs:LuminanceAdjustmentYellow="10" crs:LuminanceAdjustmentGreen="16" crs:LuminanceAdjustmentAqua="10" crs:LuminanceAdjustmentBlue="10" crs:LuminanceAdjustmentPurple="0" crs:LuminanceAdjustmentMagenta="0" crs:SplitToningShadowHue="210" crs:SplitToningShadowSaturation="7" crs:SplitToningHighlightHue="60" crs:SplitToningHighlightSaturation="8" crs:SplitToningBalance="-10" crs:ColorGradeMidtoneHue="0" crs:ColorGradeMidtoneSat="0" crs:ColorGradeShadowLum="0" crs:ColorGradeMidtoneLum="0" crs:ColorGradeHighlightLum="0" crs:ColorGradeBlending="50" crs:ColorGradeGlobalHue="0" crs:ColorGradeGlobalSat="0" crs:ColorGradeGlobalLum="0" crs:GrainAmount="20" crs:GrainSize="24" crs:GrainFrequency="60" crs:PostCropVignetteAmount="-6" crs:ShadowTint="20" crs:RedHue="0" crs:RedSaturation="0" crs:GreenHue="0" crs:GreenSaturation="0" crs:BlueHue="0" crs:BlueSaturation="0" crs:CurveRefineSaturation="0" crs:OverrideLookVignette="False" crs:Name="Fujifilm Pro 400H Look"><crs:ToneCurvePV2012><rdf:Seq><rdf:li>0,0</rdf:li><rdf:li>40,36</rdf:li><rdf:li>80,72</rdf:li><rdf:li>128,128</rdf:li><rdf:li>192,196</rdf:li><rdf:li>233,236</rdf:li><rdf:li>255,255</rdf:li></rdf:Seq></crs:ToneCurvePV2012><crs:ToneCurvePV2012Red><rdf:Seq><rdf:li>0,0</rdf:li><rdf:li>42,40</rdf:li><rdf:li>128,128</rdf:li><rdf:li>200,202</rdf:li><rdf:li>255,255</rdf:li></rdf:Seq></crs:ToneCurvePV2012Red><crs:ToneCurvePV2012Green><rdf:Seq><rdf:li>0,0</rdf:li><rdf:li>32,30</rdf:li><rdf:li>128,128</rdf:li><rdf:li>216,222</rdf:li><rdf:li>255,255</rdf:li></rdf:Seq></crs:ToneCurvePV2012Green><crs:ToneCurvePV2012Blue><rdf:Seq><rdf:li>0,0</rdf:li><rdf:li>45,46</rdf:li><rdf:li>128,130</rdf:li><rdf:li>205,213</rdf:li><rdf:li>255,255</rdf:li></rdf:Seq></crs:ToneCurvePV2012Blue><crs:PointColors><rdf:Seq><rdf:li>#e1e8d2</rdf:li><rdf:li>#eae1b8</rdf:li><rdf:li>#beffe8</rdf:li><rdf:li>#71c0db</rdf:li></rdf:Seq></crs:PointColors></rdf:Description></rdf:RDF></x:xmpmeta>