static/cached/Fujifilm_Pro_400H_Look3.xmp
<?xml version='1.0' encoding='utf-8'?>
<x:xmpmeta xmlns:x="adobe:ns:meta/" x:xmptk="Adobe XMP Core 7.0-c000 1.000000, 0000/00/00-00:00:00"><rdf:RDF xmlns:rdf="http://www.w3.org/1999/02/22-rdf-syntax-ns#"><rdf:Description rdf:about="" xmlns:crs="http://ns.adobe.com/camera-raw-settings/1.0/" crs:PresetType="Normal" crs:Cluster="" crs:UUID="8480E52A4CCB4614BB7AAC7691898CD6" crs:SupportsAmount2="True" crs:SupportsAmount="True" crs:SupportsColor="True" crs:SupportsMonochrome="True" crs:SupportsHighDynamicRange="True" crs:SupportsNormalDynamicRange="True" crs:SupportsSceneReferred="True" crs:SupportsOutputReferred="True" crs:RequiresRGBTables="False" crs:CameraModelRestriction="" crs:Copyright="" crs:ContactInfo="" crs:Version="17.2" crs:ProcessVersion="15.4" crs:ToneCurveName2012="Custom" crs:HasSettings="True" crs:Contrast2012="8" crs:Highlights2012="-22" crs:Shadows2012="28" crs:Whites2012="12" crs:Blacks2012="-8" crs:Texture="0" crs:Clarity2012="4" crs:Dehaze="0" crs:Vibrance="14" crs:Saturation="-6" crs:ParametricShadows="4" crs:ParametricDarks="-3" crs:ParametricLights="6" crs:ParametricHighlights="1" crs:ParametricShadowSplit="19" crs:ParametricMidtoneSplit="50" crs:ParametricHighlightSplit="75" crs:Sharpness="40" crs:SharpenRadius="1.1" crs:SharpenDetail="21" crs:SharpenEdgeMasking="24" crs:LuminanceSmoothing="12" crs:ColorNoiseReduction="20" crs:ColorNoiseReductionDetail="50" crs:ColorNoiseReductionSmoothness="60" crs:HueAdjustmentRed="0" crs:HueAdjustmentOrange="-6" crs:HueAdjustmentYellow="-18" crs:HueAdjustmentGreen="-16" crs:HueAdjustmentAqua="7" crs:HueAdjustmentBlue="12" crs:HueAdjustmentPurple="3" crs:HueAdjustmentMagenta="0" crs:SaturationAdjustmentRed="-10" crs:SaturationAdjustmentOrange="-6" crs:SaturationAdjustmentYellow="-24" crs:SaturationAdjustmentGreen="-34" crs:SaturationAdjustmentAqua="-18" crs:SaturationAdjustmentBlue="-8" crs:SaturationAdjustmentPurple="4" crs:SaturationAdjustmentMagenta="0" crs:LuminanceAdjustmentRed="0" crs:LuminanceAdjustmentOrange="8" crs:LuminanceAdjustmentYellow="18" crs:LuminanceAdjustmentGreen="22" crs:LuminanceAdjustmentAqua="14" crs:LuminanceAdjustmentBlue="19" crs:LuminanceAdjustmentPurple="0" crs:LuminanceAdjustmentMagenta="3" crs:SplitToningShadowHue="145" crs:SplitToningShadowSaturation="11" crs:SplitToningHighlightHue="51" crs:SplitToningHighlightSaturation="9" crs:SplitToningBalance="-18" crs:ColorGradeMidtoneHue="0" crs:ColorGradeMidtoneSat="0" crs:ColorGradeShadowLum="0" crs:ColorGradeMidtoneLum="0" crs:ColorGradeHighlightLum="0" crs:ColorGradeBlending="50" crs:ColorGradeGlobalHue="0" crs:ColorGradeGlobalSat="0" crs:ColorGradeGlobalLum="0" crs:GrainAmount="14" crs:GrainSize="32" crs:GrainFrequency="46" crs:PostCropVignetteAmount="-12" crs:ShadowTint="19" crs:RedHue="0" crs:RedSaturation="0" crs:GreenHue="0" crs:GreenSaturation="0" crs:BlueHue="0" crs:BlueSaturation="0" crs:CurveRefineSaturation="0" crs:OverrideLookVignette="False" crs:Name="Fujifilm Pro 400H"><crs:ToneCurvePV2012><rdf:Seq><rdf:li>0,0</rdf:li><rdf:li>55,38</rdf:li><rdf:li>135,155</rdf:li><rdf:li>255,255</rdf:li></rdf:Seq></crs:ToneCurvePV2012><crs:ToneCurvePV2012Red><rdf:Seq><rdf:li>0,0</rdf:li><rdf:li>75,62</rdf:li><rdf:li>185,202</rdf:li><rdf:li>255,255</rdf:li></rdf:Seq></crs:ToneCurvePV2012Red><crs:ToneCurvePV2012Green><rdf:Seq><rdf:li>0,0</rdf:li><rdf:li>57,51</rdf:li><rdf:li>178,200</rdf:li><rdf:li>255,255</rdf:li></rdf:Seq></crs:ToneCurvePV2012Green><crs:ToneCurvePV2012Blue><rdf:Seq><rdf:li>0,0</rdf:li><rdf:li>61,55</rdf:li><rdf:li>191,225</rdf:li><rdf:li>255,255</rdf:li></rdf:Seq></crs:ToneCurvePV2012Blue><crs:PointColors><rdf:Seq><rdf:li>#F8E9D4</rdf:li><rdf:li>#ECEFCB</rdf:li><rdf:li>#AFD3C7</rdf:li><rdf:li>#B9D6DF</rdf:li></rdf:Seq></crs:PointColors></rdf:Description></rdf:RDF></x:xmpmeta>