static/cached/Fujifilm_Pro_400H_Look1.xmp
<?xml version='1.0' encoding='utf-8'?>
<x:xmpmeta xmlns:x="adobe:ns:meta/" x:xmptk="Adobe XMP Core 7.0-c000 1.000000, 0000/00/00-00:00:00"><rdf:RDF xmlns:rdf="http://www.w3.org/1999/02/22-rdf-syntax-ns#"><rdf:Description rdf:about="" xmlns:crs="http://ns.adobe.com/camera-raw-settings/1.0/" crs:PresetType="Normal" crs:Cluster="" crs:UUID="0816EBCF3BB14CABBF5F0B3B93FF0F81" crs:SupportsAmount2="True" crs:SupportsAmount="True" crs:SupportsColor="True" crs:SupportsMonochrome="True" crs:SupportsHighDynamicRange="True" crs:SupportsNormalDynamicRange="True" crs:SupportsSceneReferred="True" crs:SupportsOutputReferred="True" crs:RequiresRGBTables="False" crs:CameraModelRestriction="" crs:Copyright="" crs:ContactInfo="" crs:Version="17.2" crs:ProcessVersion="15.4" crs:ToneCurveName2012="Custom" crs:HasSettings="True" crs:Contrast2012="5" crs:Highlights2012="-15" crs:Shadows2012="22" crs:Whites2012="10" crs:Blacks2012="-12" crs:Texture="0" crs:Clarity2012="3" crs:Dehaze="0" crs:Vibrance="18" crs:Saturation="-7" crs:ParametricShadows="4" crs:ParametricDarks="-3" crs:ParametricLights="7" crs:ParametricHighlights="2" crs:ParametricShadowSplit="18" crs:ParametricMidtoneSplit="45" crs:ParametricHighlightSplit="75" crs:Sharpness="40" crs:SharpenRadius="1.0" crs:SharpenDetail="25" crs:SharpenEdgeMasking="0" crs:LuminanceSmoothing="18" crs:ColorNoiseReduction="18" crs:ColorNoiseReductionDetail="50" crs:ColorNoiseReductionSmoothness="50" crs:HueAdjustmentRed="-2" crs:HueAdjustmentOrange="3" crs:HueAdjustmentYellow="-10" crs:HueAdjustmentGreen="25" crs:HueAdjustmentAqua="10" crs:HueAdjustmentBlue="7" crs:HueAdjustmentPurple="0" crs:HueAdjustmentMagenta="0" crs:SaturationAdjustmentRed="-7" crs:SaturationAdjustmentOrange="5" crs:SaturationAdjustmentYellow="6" crs:SaturationAdjustmentGreen="12" crs:SaturationAdjustmentAqua="5" crs:SaturationAdjustmentBlue="10" crs:SaturationAdjustmentPurple="-5" crs:SaturationAdjustmentMagenta="-5" crs:LuminanceAdjustmentRed="-1" crs:LuminanceAdjustmentOrange="4" crs:LuminanceAdjustmentYellow="12" crs:LuminanceAdjustmentGreen="8" crs:LuminanceAdjustmentAqua="3" crs:LuminanceAdjustmentBlue="10" crs:LuminanceAdjustmentPurple="0" crs:LuminanceAdjustmentMagenta="0" crs:SplitToningShadowHue="172" crs:SplitToningShadowSaturation="11" crs:SplitToningHighlightHue="55" crs:SplitToningHighlightSaturation="8" crs:SplitToningBalance="-20" crs:ColorGradeMidtoneHue="0" crs:ColorGradeMidtoneSat="0" crs:ColorGradeShadowLum="0" crs:ColorGradeMidtoneLum="0" crs:ColorGradeHighlightLum="0" crs:ColorGradeBlending="50" crs:ColorGradeGlobalHue="0" crs:ColorGradeGlobalSat="0" crs:ColorGradeGlobalLum="0" crs:GrainAmount="20" crs:GrainSize="26" crs:GrainFrequency="47" crs:PostCropVignetteAmount="-8" crs:ShadowTint="25" crs:RedHue="-2" crs:RedSaturation="-7" crs:GreenHue="25" crs:GreenSaturation="12" crs:BlueHue="7" crs:BlueSaturation="10" crs:CurveRefineSaturation="0" crs:OverrideLookVignette="False" crs:Name="Fujifilm Pro 400H Look"><crs:ToneCurvePV2012><rdf:Seq><rdf:li>0,0</rdf:li><rdf:li>32,25</rdf:li><rdf:li>64,55</rdf:li><rdf:li>128,130</rdf:li><rdf:li>192,200</rdf:li><rdf:li>255,255</rdf:li></rdf:Seq></crs:ToneCurvePV2012><crs:ToneCurvePV2012Red><rdf:Seq><rdf:li>0,10</rdf:li><rdf:li>32,32</rdf:li><rdf:li>64,65</rdf:li><rdf:li>128,128</rdf:li><rdf:li>192,175</rdf:li><rdf:li>255,245</rdf:li></rdf:Seq></crs:ToneCurvePV2012Red><crs:ToneCurvePV2012Green><rdf:Seq><rdf:li>0,0</rdf:li><rdf:li>32,26</rdf:li><rdf:li>64,65</rdf:li><rdf:li>128,128</rdf:li><rdf:li>192,200</rdf:li><rdf:li>255,249</rdf:li></rdf:Seq></crs:ToneCurvePV2012Green><crs:ToneCurvePV2012Blue><rdf:Seq><rdf:li>0,17</rdf:li><rdf:li>32,37</rdf:li><rdf:li>64,75</rdf:li><rdf:li>128,135</rdf:li><rdf:li>192,217</rdf:li><rdf:li>255,250</rdf:li></rdf:Seq></crs:ToneCurvePV2012Blue><crs:PointColors><rdf:Seq /></crs:PointColors></rdf:Description></rdf:RDF></x:xmpmeta>