static/cached/Kodak_Gold_Look2.xmp
<?xml version='1.0' encoding='utf-8'?>
<x:xmpmeta xmlns:x="adobe:ns:meta/" x:xmptk="Adobe XMP Core 7.0-c000 1.000000, 0000/00/00-00:00:00"><rdf:RDF xmlns:rdf="http://www.w3.org/1999/02/22-rdf-syntax-ns#"><rdf:Description rdf:about="" xmlns:crs="http://ns.adobe.com/camera-raw-settings/1.0/" crs:PresetType="Normal" crs:Cluster="" crs:UUID="8EC6EE1CCD6F401FBDEB461262BB8F07" crs:SupportsAmount2="True" crs:SupportsAmount="True" crs:SupportsColor="True" crs:SupportsMonochrome="True" crs:SupportsHighDynamicRange="True" crs:SupportsNormalDynamicRange="True" crs:SupportsSceneReferred="True" crs:SupportsOutputReferred="True" crs:RequiresRGBTables="False" crs:CameraModelRestriction="" crs:Copyright="" crs:ContactInfo="" crs:Version="17.2" crs:ProcessVersion="15.4" crs:ToneCurveName2012="Medium Contrast" crs:HasSettings="True" crs:Contrast2012="15" crs:Highlights2012="-13" crs:Shadows2012="24" crs:Whites2012="12" crs:Blacks2012="-22" crs:Texture="8" crs:Clarity2012="5" crs:Dehaze="0" crs:Vibrance="18" crs:Saturation="7" crs:ParametricShadows="10" crs:ParametricDarks="-6" crs:ParametricLights="8" crs:ParametricHighlights="10" crs:ParametricShadowSplit="22" crs:ParametricMidtoneSplit="52" crs:ParametricHighlightSplit="74" crs:Sharpness="40" crs:SharpenRadius="1.2" crs:SharpenDetail="30" crs:SharpenEdgeMasking="10" crs:LuminanceSmoothing="12" crs:ColorNoiseReduction="20" crs:ColorNoiseReductionDetail="30" crs:ColorNoiseReductionSmoothness="60" crs:HueAdjustmentRed="-4" crs:HueAdjustmentOrange="5" crs:HueAdjustmentYellow="15" crs:HueAdjustmentGreen="-12" crs:HueAdjustmentAqua="-8" crs:HueAdjustmentBlue="10" crs:HueAdjustmentPurple="-6" crs:HueAdjustmentMagenta="6" crs:SaturationAdjustmentRed="-6" crs:SaturationAdjustmentOrange="10" crs:SaturationAdjustmentYellow="30" crs:SaturationAdjustmentGreen="-20" crs:SaturationAdjustmentAqua="-10" crs:SaturationAdjustmentBlue="-12" crs:SaturationAdjustmentPurple="-10" crs:SaturationAdjustmentMagenta="-5" crs:LuminanceAdjustmentRed="5" crs:LuminanceAdjustmentOrange="12" crs:LuminanceAdjustmentYellow="22" crs:LuminanceAdjustmentGreen="-16" crs:LuminanceAdjustmentAqua="-8" crs:LuminanceAdjustmentBlue="10" crs:LuminanceAdjustmentPurple="6" crs:LuminanceAdjustmentMagenta="10" crs:SplitToningShadowHue="39" crs:SplitToningShadowSaturation="12" crs:SplitToningHighlightHue="50" crs:SplitToningHighlightSaturation="18" crs:SplitToningBalance="-24" crs:ColorGradeMidtoneHue="44" crs:ColorGradeMidtoneSat="12" crs:ColorGradeShadowLum="4" crs:ColorGradeMidtoneLum="6" crs:ColorGradeHighlightLum="10" crs:ColorGradeBlending="38" crs:ColorGradeGlobalHue="44" crs:ColorGradeGlobalSat="7" crs:ColorGradeGlobalLum="5" crs:GrainAmount="26" crs:GrainSize="25" crs:GrainFrequency="55" crs:PostCropVignetteAmount="-14" crs:ShadowTint="18" crs:RedHue="-4" crs:RedSaturation="-5" crs:GreenHue="-10" crs:GreenSaturation="-13" crs:BlueHue="11" crs:BlueSaturation="-12" crs:CurveRefineSaturation="0" crs:OverrideLookVignette="False" crs:Name="Kodak Gold Look"><crs:ToneCurvePV2012><rdf:Seq><rdf:li>0,0</rdf:li><rdf:li>32,27</rdf:li><rdf:li>64,55</rdf:li><rdf:li>128,128</rdf:li><rdf:li>192,200</rdf:li><rdf:li>255,255</rdf:li></rdf:Seq></crs:ToneCurvePV2012><crs:ToneCurvePV2012Red><rdf:Seq><rdf:li>0,0</rdf:li><rdf:li>64,58</rdf:li><rdf:li>128,132</rdf:li><rdf:li>192,205</rdf:li><rdf:li>255,255</rdf:li></rdf:Seq></crs:ToneCurvePV2012Red><crs:ToneCurvePV2012Green><rdf:Seq><rdf:li>0,0</rdf:li><rdf:li>64,60</rdf:li><rdf:li>128,128</rdf:li><rdf:li>192,195</rdf:li><rdf:li>255,255</rdf:li></rdf:Seq></crs:ToneCurvePV2012Green><crs:ToneCurvePV2012Blue><rdf:Seq><rdf:li>0,12</rdf:li><rdf:li>64,66</rdf:li><rdf:li>128,128</rdf:li><rdf:li>192,184</rdf:li><rdf:li>255,255</rdf:li></rdf:Seq></crs:ToneCurvePV2012Blue><crs:PointColors><rdf:Seq /></crs:PointColors></rdf:Description></rdf:RDF></x:xmpmeta>