static/cached/Kodak_Gold_Look3.xmp
<?xml version='1.0' encoding='utf-8'?>
<x:xmpmeta xmlns:x="adobe:ns:meta/" x:xmptk="Adobe XMP Core 7.0-c000 1.000000, 0000/00/00-00:00:00"><rdf:RDF xmlns:rdf="http://www.w3.org/1999/02/22-rdf-syntax-ns#"><rdf:Description rdf:about="" xmlns:crs="http://ns.adobe.com/camera-raw-settings/1.0/" crs:PresetType="Normal" crs:Cluster="" crs:UUID="0C1EBA5942EE4AB193F88D5F17275392" crs:SupportsAmount2="True" crs:SupportsAmount="True" crs:SupportsColor="True" crs:SupportsMonochrome="True" crs:SupportsHighDynamicRange="True" crs:SupportsNormalDynamicRange="True" crs:SupportsSceneReferred="True" crs:SupportsOutputReferred="True" crs:RequiresRGBTables="False" crs:CameraModelRestriction="" crs:Copyright="" crs:ContactInfo="" crs:Version="17.2" crs:ProcessVersion="15.4" crs:ToneCurveName2012="Medium Contrast" crs:HasSettings="True" crs:Contrast2012="10" crs:Highlights2012="-18" crs:Shadows2012="15" crs:Whites2012="8" crs:Blacks2012="-9" crs:Texture="5" crs:Clarity2012="3" crs:Dehaze="0" crs:Vibrance="15" crs:Saturation="5" crs:ParametricShadows="-5" crs:ParametricDarks="0" crs:ParametricLights="0" crs:ParametricHighlights="5" crs:ParametricShadowSplit="15" crs:ParametricMidtoneSplit="50" crs:ParametricHighlightSplit="75" crs:Sharpness="35" crs:SharpenRadius="1.1" crs:SharpenDetail="22" crs:SharpenEdgeMasking="20" crs:LuminanceSmoothing="15" crs:ColorNoiseReduction="20" crs:ColorNoiseReductionDetail="40" crs:ColorNoiseReductionSmoothness="55" crs:HueAdjustmentRed="-6" crs:HueAdjustmentOrange="5" crs:HueAdjustmentYellow="8" crs:HueAdjustmentGreen="-4" crs:HueAdjustmentAqua="0" crs:HueAdjustmentBlue="-10" crs:HueAdjustmentPurple="0" crs:HueAdjustmentMagenta="0" crs:SaturationAdjustmentRed="8" crs:SaturationAdjustmentOrange="13" crs:SaturationAdjustmentYellow="22" crs:SaturationAdjustmentGreen="-8" crs:SaturationAdjustmentAqua="-14" crs:SaturationAdjustmentBlue="-10" crs:SaturationAdjustmentPurple="-8" crs:SaturationAdjustmentMagenta="-5" crs:LuminanceAdjustmentRed="7" crs:LuminanceAdjustmentOrange="7" crs:LuminanceAdjustmentYellow="15" crs:LuminanceAdjustmentGreen="-10" crs:LuminanceAdjustmentAqua="-12" crs:LuminanceAdjustmentBlue="12" crs:LuminanceAdjustmentPurple="5" crs:LuminanceAdjustmentMagenta="0" crs:SplitToningShadowHue="38" crs:SplitToningShadowSaturation="14" crs:SplitToningHighlightHue="45" crs:SplitToningHighlightSaturation="18" crs:SplitToningBalance="-16" crs:ColorGradeMidtoneHue="50" crs:ColorGradeMidtoneSat="10" crs:ColorGradeShadowLum="0" crs:ColorGradeMidtoneLum="0" crs:ColorGradeHighlightLum="0" crs:ColorGradeBlending="60" crs:ColorGradeGlobalHue="40" crs:ColorGradeGlobalSat="7" crs:ColorGradeGlobalLum="0" crs:GrainAmount="18" crs:GrainSize="20" crs:GrainFrequency="50" crs:PostCropVignetteAmount="-7" crs:ShadowTint="20" crs:RedHue="-6" crs:RedSaturation="8" crs:GreenHue="-4" crs:GreenSaturation="-8" crs:BlueHue="-10" crs:BlueSaturation="-10" crs:CurveRefineSaturation="0" crs:OverrideLookVignette="False" crs:Name="Kodak Gold"><crs:ToneCurvePV2012><rdf:Seq><rdf:li>0,0</rdf:li><rdf:li>32,25</rdf:li><rdf:li>69,59</rdf:li><rdf:li>130,132</rdf:li><rdf:li>197,212</rdf:li><rdf:li>255,255</rdf:li></rdf:Seq></crs:ToneCurvePV2012><crs:ToneCurvePV2012Red><rdf:Seq><rdf:li>0,6</rdf:li><rdf:li>64,54</rdf:li><rdf:li>128,120</rdf:li><rdf:li>191,202</rdf:li><rdf:li>255,238</rdf:li></rdf:Seq></crs:ToneCurvePV2012Red><crs:ToneCurvePV2012Green><rdf:Seq><rdf:li>0,10</rdf:li><rdf:li>66,64</rdf:li><rdf:li>130,122</rdf:li><rdf:li>191,202</rdf:li><rdf:li>255,247</rdf:li></rdf:Seq></crs:ToneCurvePV2012Green><crs:ToneCurvePV2012Blue><rdf:Seq><rdf:li>0,22</rdf:li><rdf:li>64,68</rdf:li><rdf:li>128,124</rdf:li><rdf:li>192,202</rdf:li><rdf:li>255,246</rdf:li></rdf:Seq></crs:ToneCurvePV2012Blue><crs:PointColors><rdf:Seq /></crs:PointColors></rdf:Description></rdf:RDF></x:xmpmeta>