static/cached/Kodak_Gold_Look1.xmp
<?xml version='1.0' encoding='utf-8'?>
<x:xmpmeta xmlns:x="adobe:ns:meta/" x:xmptk="Adobe XMP Core 7.0-c000 1.000000, 0000/00/00-00:00:00"><rdf:RDF xmlns:rdf="http://www.w3.org/1999/02/22-rdf-syntax-ns#"><rdf:Description rdf:about="" xmlns:crs="http://ns.adobe.com/camera-raw-settings/1.0/" crs:PresetType="Normal" crs:Cluster="" crs:UUID="1BCA912D2D524DE0BA062AF4EFE7AAEE" crs:SupportsAmount2="True" crs:SupportsAmount="True" crs:SupportsColor="True" crs:SupportsMonochrome="True" crs:SupportsHighDynamicRange="True" crs:SupportsNormalDynamicRange="True" crs:SupportsSceneReferred="True" crs:SupportsOutputReferred="True" crs:RequiresRGBTables="False" crs:CameraModelRestriction="" crs:Copyright="" crs:ContactInfo="" crs:Version="17.2" crs:ProcessVersion="15.4" crs:ToneCurveName2012="Medium Contrast" crs:HasSettings="True" crs:Contrast2012="15" crs:Highlights2012="-20" crs:Shadows2012="20" crs:Whites2012="10" crs:Blacks2012="-10" crs:Texture="5" crs:Clarity2012="8" crs:Dehaze="0" crs:Vibrance="18" crs:Saturation="7" crs:ParametricShadows="12" crs:ParametricDarks="6" crs:ParametricLights="-8" crs:ParametricHighlights="-12" crs:ParametricShadowSplit="14" crs:ParametricMidtoneSplit="19" crs:ParametricHighlightSplit="73" crs:Sharpness="35" crs:SharpenRadius="1.1" crs:SharpenDetail="25" crs:SharpenEdgeMasking="15" crs:LuminanceSmoothing="10" crs:ColorNoiseReduction="12" crs:ColorNoiseReductionDetail="50" crs:ColorNoiseReductionSmoothness="50" crs:HueAdjustmentRed="-3" crs:HueAdjustmentOrange="5" crs:HueAdjustmentYellow="-8" crs:HueAdjustmentGreen="-20" crs:HueAdjustmentAqua="10" crs:HueAdjustmentBlue="-10" crs:HueAdjustmentPurple="0" crs:HueAdjustmentMagenta="0" crs:SaturationAdjustmentRed="-2" crs:SaturationAdjustmentOrange="7" crs:SaturationAdjustmentYellow="14" crs:SaturationAdjustmentGreen="-16" crs:SaturationAdjustmentAqua="-10" crs:SaturationAdjustmentBlue="-18" crs:SaturationAdjustmentPurple="-5" crs:SaturationAdjustmentMagenta="-2" crs:LuminanceAdjustmentRed="4" crs:LuminanceAdjustmentOrange="7" crs:LuminanceAdjustmentYellow="13" crs:LuminanceAdjustmentGreen="-4" crs:LuminanceAdjustmentAqua="-6" crs:LuminanceAdjustmentBlue="-8" crs:LuminanceAdjustmentPurple="0" crs:LuminanceAdjustmentMagenta="0" crs:SplitToningShadowHue="38" crs:SplitToningShadowSaturation="10" crs:SplitToningHighlightHue="48" crs:SplitToningHighlightSaturation="23" crs:SplitToningBalance="14" crs:ColorGradeMidtoneHue="40" crs:ColorGradeMidtoneSat="6" crs:ColorGradeShadowLum="3" crs:ColorGradeMidtoneLum="6" crs:ColorGradeHighlightLum="6" crs:ColorGradeBlending="47" crs:ColorGradeGlobalHue="45" crs:ColorGradeGlobalSat="7" crs:ColorGradeGlobalLum="0" crs:GrainAmount="26" crs:GrainSize="29" crs:GrainFrequency="52" crs:PostCropVignetteAmount="-10" crs:ShadowTint="17" crs:RedHue="-3" crs:RedSaturation="-2" crs:GreenHue="-10" crs:GreenSaturation="-18" crs:BlueHue="-7" crs:BlueSaturation="-13" crs:CurveRefineSaturation="0" crs:OverrideLookVignette="False" crs:Name="Kodak Gold Look"><crs:ToneCurvePV2012><rdf:Seq><rdf:li>0,0</rdf:li><rdf:li>52,44</rdf:li><rdf:li>105,106</rdf:li><rdf:li>186,199</rdf:li><rdf:li>255,255</rdf:li></rdf:Seq></crs:ToneCurvePV2012><crs:ToneCurvePV2012Red><rdf:Seq><rdf:li>0,0</rdf:li><rdf:li>52,43</rdf:li><rdf:li>105,106</rdf:li><rdf:li>186,208</rdf:li><rdf:li>255,255</rdf:li></rdf:Seq></crs:ToneCurvePV2012Red><crs:ToneCurvePV2012Green><rdf:Seq><rdf:li>0,0</rdf:li><rdf:li>52,41</rdf:li><rdf:li>105,107</rdf:li><rdf:li>186,185</rdf:li><rdf:li>255,255</rdf:li></rdf:Seq></crs:ToneCurvePV2012Green><crs:ToneCurvePV2012Blue><rdf:Seq><rdf:li>0,7</rdf:li><rdf:li>52,47</rdf:li><rdf:li>105,111</rdf:li><rdf:li>186,201</rdf:li><rdf:li>255,255</rdf:li></rdf:Seq></crs:ToneCurvePV2012Blue><crs:PointColors><rdf:Seq /></crs:PointColors></rdf:Description></rdf:RDF></x:xmpmeta>