static/cached/Moody_Portrait3.xmp
<?xml version='1.0' encoding='utf-8'?>
<x:xmpmeta xmlns:x="adobe:ns:meta/" x:xmptk="Adobe XMP Core 7.0-c000 1.000000, 0000/00/00-00:00:00"><rdf:RDF xmlns:rdf="http://www.w3.org/1999/02/22-rdf-syntax-ns#"><rdf:Description rdf:about="" xmlns:crs="http://ns.adobe.com/camera-raw-settings/1.0/" crs:PresetType="Normal" crs:Cluster="" crs:UUID="47B4D7F758D84669BF1C174EE47A3D7F" crs:SupportsAmount2="True" crs:SupportsAmount="True" crs:SupportsColor="True" crs:SupportsMonochrome="True" crs:SupportsHighDynamicRange="True" crs:SupportsNormalDynamicRange="True" crs:SupportsSceneReferred="True" crs:SupportsOutputReferred="True" crs:RequiresRGBTables="False" crs:CameraModelRestriction="" crs:Copyright="" crs:ContactInfo="" crs:Version="17.2" crs:ProcessVersion="15.4" crs:ToneCurveName2012="Custom" crs:HasSettings="True" crs:Contrast2012="35" crs:Highlights2012="-25" crs:Shadows2012="35" crs:Whites2012="-15" crs:Blacks2012="-40" crs:Texture="10" crs:Clarity2012="22" crs:Dehaze="8" crs:Vibrance="-15" crs:Saturation="-8" crs:ParametricShadows="-15" crs:ParametricDarks="-10" crs:ParametricLights="10" crs:ParametricHighlights="2" crs:ParametricShadowSplit="25" crs:ParametricMidtoneSplit="50" crs:ParametricHighlightSplit="75" crs:Sharpness="45" crs:SharpenRadius="1.0" crs:SharpenDetail="30" crs:SharpenEdgeMasking="35" crs:LuminanceSmoothing="20" crs:ColorNoiseReduction="15" crs:ColorNoiseReductionDetail="40" crs:ColorNoiseReductionSmoothness="50" crs:HueAdjustmentRed="0" crs:HueAdjustmentOrange="-8" crs:HueAdjustmentYellow="-10" crs:HueAdjustmentGreen="0" crs:HueAdjustmentAqua="0" crs:HueAdjustmentBlue="0" crs:HueAdjustmentPurple="0" crs:HueAdjustmentMagenta="0" crs:SaturationAdjustmentRed="-5" crs:SaturationAdjustmentOrange="-7" crs:SaturationAdjustmentYellow="-35" crs:SaturationAdjustmentGreen="-30" crs:SaturationAdjustmentAqua="-10" crs:SaturationAdjustmentBlue="-25" crs:SaturationAdjustmentPurple="-10" crs:SaturationAdjustmentMagenta="-5" crs:LuminanceAdjustmentRed="5" crs:LuminanceAdjustmentOrange="7" crs:LuminanceAdjustmentYellow="-10" crs:LuminanceAdjustmentGreen="-8" crs:LuminanceAdjustmentAqua="0" crs:LuminanceAdjustmentBlue="10" crs:LuminanceAdjustmentPurple="0" crs:LuminanceAdjustmentMagenta="0" crs:SplitToningShadowHue="220" crs:SplitToningShadowSaturation="8" crs:SplitToningHighlightHue="45" crs:SplitToningHighlightSaturation="12" crs:SplitToningBalance="-28" crs:ColorGradeMidtoneHue="30" crs:ColorGradeMidtoneSat="6" crs:ColorGradeShadowLum="-12" crs:ColorGradeMidtoneLum="-5" crs:ColorGradeHighlightLum="8" crs:ColorGradeBlending="65" crs:ColorGradeGlobalHue="0" crs:ColorGradeGlobalSat="0" crs:ColorGradeGlobalLum="0" crs:GrainAmount="18" crs:GrainSize="20" crs:GrainFrequency="45" crs:PostCropVignetteAmount="-36" crs:ShadowTint="8" crs:RedHue="0" crs:RedSaturation="-5" crs:GreenHue="0" crs:GreenSaturation="0" crs:BlueHue="7" crs:BlueSaturation="-12" crs:CurveRefineSaturation="0" crs:OverrideLookVignette="False" crs:Name="Moody Portrait"><crs:ToneCurvePV2012><rdf:Seq><rdf:li>0,19</rdf:li><rdf:li>34,37</rdf:li><rdf:li>69,69</rdf:li><rdf:li>102,122</rdf:li><rdf:li>170,217</rdf:li><rdf:li>255,235</rdf:li></rdf:Seq></crs:ToneCurvePV2012><crs:ToneCurvePV2012Red><rdf:Seq><rdf:li>0,15</rdf:li><rdf:li>45,60</rdf:li><rdf:li>127,128</rdf:li><rdf:li>255,245</rdf:li></rdf:Seq></crs:ToneCurvePV2012Red><crs:ToneCurvePV2012Green><rdf:Seq><rdf:li>0,17</rdf:li><rdf:li>127,120</rdf:li><rdf:li>255,235</rdf:li></rdf:Seq></crs:ToneCurvePV2012Green><crs:ToneCurvePV2012Blue><rdf:Seq><rdf:li>0,32</rdf:li><rdf:li>65,80</rdf:li><rdf:li>127,128</rdf:li><rdf:li>192,210</rdf:li><rdf:li>255,240</rdf:li></rdf:Seq></crs:ToneCurvePV2012Blue><crs:PointColors><rdf:Seq /></crs:PointColors></rdf:Description></rdf:RDF></x:xmpmeta>