static/cached/Moody_Portrait1.xmp
<?xml version='1.0' encoding='utf-8'?>
<x:xmpmeta xmlns:x="adobe:ns:meta/" x:xmptk="Adobe XMP Core 7.0-c000 1.000000, 0000/00/00-00:00:00"><rdf:RDF xmlns:rdf="http://www.w3.org/1999/02/22-rdf-syntax-ns#"><rdf:Description rdf:about="" xmlns:crs="http://ns.adobe.com/camera-raw-settings/1.0/" crs:PresetType="Normal" crs:Cluster="" crs:UUID="07074ABE6D0E4A4992DB61190AF7E629" crs:SupportsAmount2="True" crs:SupportsAmount="True" crs:SupportsColor="True" crs:SupportsMonochrome="True" crs:SupportsHighDynamicRange="True" crs:SupportsNormalDynamicRange="True" crs:SupportsSceneReferred="True" crs:SupportsOutputReferred="True" crs:RequiresRGBTables="False" crs:CameraModelRestriction="" crs:Copyright="" crs:ContactInfo="" crs:Version="17.2" crs:ProcessVersion="15.4" crs:ToneCurveName2012="Medium Contrast" crs:HasSettings="True" crs:Contrast2012="25" crs:Highlights2012="-40" crs:Shadows2012="35" crs:Whites2012="-25" crs:Blacks2012="-40" crs:Texture="10" crs:Clarity2012="20" crs:Dehaze="10" crs:Vibrance="-10" crs:Saturation="-7" crs:ParametricShadows="-25" crs:ParametricDarks="-10" crs:ParametricLights="20" crs:ParametricHighlights="-10" crs:ParametricShadowSplit="25" crs:ParametricMidtoneSplit="50" crs:ParametricHighlightSplit="75" crs:Sharpness="45" crs:SharpenRadius="1.0" crs:SharpenDetail="35" crs:SharpenEdgeMasking="30" crs:LuminanceSmoothing="10" crs:ColorNoiseReduction="12" crs:ColorNoiseReductionDetail="50" crs:ColorNoiseReductionSmoothness="50" crs:HueAdjustmentRed="0" crs:HueAdjustmentOrange="-8" crs:HueAdjustmentYellow="-18" crs:HueAdjustmentGreen="-20" crs:HueAdjustmentAqua="0" crs:HueAdjustmentBlue="10" crs:HueAdjustmentPurple="0" crs:HueAdjustmentMagenta="0" crs:SaturationAdjustmentRed="-8" crs:SaturationAdjustmentOrange="-6" crs:SaturationAdjustmentYellow="-20" crs:SaturationAdjustmentGreen="-30" crs:SaturationAdjustmentAqua="-10" crs:SaturationAdjustmentBlue="-12" crs:SaturationAdjustmentPurple="-5" crs:SaturationAdjustmentMagenta="-5" crs:LuminanceAdjustmentRed="2" crs:LuminanceAdjustmentOrange="8" crs:LuminanceAdjustmentYellow="-15" crs:LuminanceAdjustmentGreen="-10" crs:LuminanceAdjustmentAqua="0" crs:LuminanceAdjustmentBlue="8" crs:LuminanceAdjustmentPurple="0" crs:LuminanceAdjustmentMagenta="0" crs:SplitToningShadowHue="220" crs:SplitToningShadowSaturation="22" crs:SplitToningHighlightHue="50" crs:SplitToningHighlightSaturation="8" crs:SplitToningBalance="-20" crs:ColorGradeMidtoneHue="210" crs:ColorGradeMidtoneSat="12" crs:ColorGradeShadowLum="-10" crs:ColorGradeMidtoneLum="6" crs:ColorGradeHighlightLum="10" crs:ColorGradeBlending="60" crs:ColorGradeGlobalHue="0" crs:ColorGradeGlobalSat="0" crs:ColorGradeGlobalLum="0" crs:GrainAmount="15" crs:GrainSize="18" crs:GrainFrequency="65" crs:PostCropVignetteAmount="-30" crs:ShadowTint="16" crs:RedHue="0" crs:RedSaturation="-5" crs:GreenHue="-4" crs:GreenSaturation="-10" crs:BlueHue="6" crs:BlueSaturation="-8" crs:CurveRefineSaturation="0" crs:OverrideLookVignette="False" crs:Name="Moody Portrait"><crs:ToneCurvePV2012><rdf:Seq><rdf:li>0,0</rdf:li><rdf:li>32,21</rdf:li><rdf:li>64,44</rdf:li><rdf:li>128,128</rdf:li><rdf:li>192,204</rdf:li><rdf:li>255,255</rdf:li></rdf:Seq></crs:ToneCurvePV2012><crs:ToneCurvePV2012Red><rdf:Seq><rdf:li>0,0</rdf:li><rdf:li>32,26</rdf:li><rdf:li>64,52</rdf:li><rdf:li>128,128</rdf:li><rdf:li>192,192</rdf:li><rdf:li>255,255</rdf:li></rdf:Seq></crs:ToneCurvePV2012Red><crs:ToneCurvePV2012Green><rdf:Seq><rdf:li>0,0</rdf:li><rdf:li>32,16</rdf:li><rdf:li>64,40</rdf:li><rdf:li>128,128</rdf:li><rdf:li>192,208</rdf:li><rdf:li>255,255</rdf:li></rdf:Seq></crs:ToneCurvePV2012Green><crs:ToneCurvePV2012Blue><rdf:Seq><rdf:li>0,17</rdf:li><rdf:li>32,28</rdf:li><rdf:li>64,36</rdf:li><rdf:li>128,128</rdf:li><rdf:li>192,234</rdf:li><rdf:li>255,255</rdf:li></rdf:Seq></crs:ToneCurvePV2012Blue><crs:PointColors><rdf:Seq /></crs:PointColors></rdf:Description></rdf:RDF></x:xmpmeta>