static/cached/Moody_Portrait2.xmp
<?xml version='1.0' encoding='utf-8'?>
<x:xmpmeta xmlns:x="adobe:ns:meta/" x:xmptk="Adobe XMP Core 7.0-c000 1.000000, 0000/00/00-00:00:00"><rdf:RDF xmlns:rdf="http://www.w3.org/1999/02/22-rdf-syntax-ns#"><rdf:Description rdf:about="" xmlns:crs="http://ns.adobe.com/camera-raw-settings/1.0/" crs:PresetType="Normal" crs:Cluster="" crs:UUID="F43411C43C0E4C0584056B9A6431E1F8" crs:SupportsAmount2="True" crs:SupportsAmount="True" crs:SupportsColor="True" crs:SupportsMonochrome="True" crs:SupportsHighDynamicRange="True" crs:SupportsNormalDynamicRange="True" crs:SupportsSceneReferred="True" crs:SupportsOutputReferred="True" crs:RequiresRGBTables="False" crs:CameraModelRestriction="" crs:Copyright="" crs:ContactInfo="" crs:Version="17.2" crs:ProcessVersion="15.4" crs:ToneCurveName2012="Custom" crs:HasSettings="True" crs:Contrast2012="25" crs:Highlights2012="-40" crs:Shadows2012="40" crs:Whites2012="-15" crs:Blacks2012="-30" crs:Texture="10" crs:Clarity2012="20" crs:Dehaze="10" crs:Vibrance="-15" crs:Saturation="-10" crs:ParametricShadows="-5" crs:ParametricDarks="-15" crs:ParametricLights="15" crs:ParametricHighlights="10" crs:ParametricShadowSplit="25" crs:ParametricMidtoneSplit="50" crs:ParametricHighlightSplit="75" crs:Sharpness="40" crs:SharpenRadius="1.4" crs:SharpenDetail="30" crs:SharpenEdgeMasking="25" crs:LuminanceSmoothing="15" crs:ColorNoiseReduction="20" crs:ColorNoiseReductionDetail="50" crs:ColorNoiseReductionSmoothness="50" crs:HueAdjustmentRed="0" crs:HueAdjustmentOrange="-5" crs:HueAdjustmentYellow="-10" crs:HueAdjustmentGreen="-20" crs:HueAdjustmentAqua="0" crs:HueAdjustmentBlue="5" crs:HueAdjustmentPurple="5" crs:HueAdjustmentMagenta="0" crs:SaturationAdjustmentRed="-10" crs:SaturationAdjustmentOrange="-15" crs:SaturationAdjustmentYellow="-30" crs:SaturationAdjustmentGreen="-50" crs:SaturationAdjustmentAqua="-10" crs:SaturationAdjustmentBlue="-20" crs:SaturationAdjustmentPurple="0" crs:SaturationAdjustmentMagenta="0" crs:LuminanceAdjustmentRed="3" crs:LuminanceAdjustmentOrange="10" crs:LuminanceAdjustmentYellow="0" crs:LuminanceAdjustmentGreen="0" crs:LuminanceAdjustmentAqua="0" crs:LuminanceAdjustmentBlue="-10" crs:LuminanceAdjustmentPurple="0" crs:LuminanceAdjustmentMagenta="0" crs:SplitToningShadowHue="235" crs:SplitToningShadowSaturation="17" crs:SplitToningHighlightHue="41" crs:SplitToningHighlightSaturation="9" crs:SplitToningBalance="-45" crs:ColorGradeMidtoneHue="200" crs:ColorGradeMidtoneSat="6" crs:ColorGradeShadowLum="-20" crs:ColorGradeMidtoneLum="0" crs:ColorGradeHighlightLum="10" crs:ColorGradeBlending="70" crs:ColorGradeGlobalHue="0" crs:ColorGradeGlobalSat="0" crs:ColorGradeGlobalLum="0" crs:GrainAmount="15" crs:GrainSize="22" crs:GrainFrequency="60" crs:PostCropVignetteAmount="-25" crs:ShadowTint="0" crs:RedHue="0" crs:RedSaturation="-10" crs:GreenHue="0" crs:GreenSaturation="-20" crs:BlueHue="-8" crs:BlueSaturation="-25" crs:CurveRefineSaturation="0" crs:OverrideLookVignette="True" crs:Name="Moody Portrait"><crs:ToneCurvePV2012><rdf:Seq><rdf:li>0,0</rdf:li><rdf:li>32,21</rdf:li><rdf:li>64,40</rdf:li><rdf:li>128,107</rdf:li><rdf:li>192,201</rdf:li><rdf:li>255,255</rdf:li></rdf:Seq></crs:ToneCurvePV2012><crs:ToneCurvePV2012Red><rdf:Seq><rdf:li>0,0</rdf:li><rdf:li>48,35</rdf:li><rdf:li>128,128</rdf:li><rdf:li>255,255</rdf:li></rdf:Seq></crs:ToneCurvePV2012Red><crs:ToneCurvePV2012Green><rdf:Seq><rdf:li>0,0</rdf:li><rdf:li>55,40</rdf:li><rdf:li>128,120</rdf:li><rdf:li>255,255</rdf:li></rdf:Seq></crs:ToneCurvePV2012Green><crs:ToneCurvePV2012Blue><rdf:Seq><rdf:li>0,10</rdf:li><rdf:li>80,60</rdf:li><rdf:li>180,200</rdf:li><rdf:li>255,240</rdf:li></rdf:Seq></crs:ToneCurvePV2012Blue><crs:PointColors><rdf:Seq /></crs:PointColors></rdf:Description></rdf:RDF></x:xmpmeta>