static/cached/Vintage_Summer3.xmp
<?xml version='1.0' encoding='utf-8'?>
<x:xmpmeta xmlns:x="adobe:ns:meta/" x:xmptk="Adobe XMP Core 7.0-c000 1.000000, 0000/00/00-00:00:00"><rdf:RDF xmlns:rdf="http://www.w3.org/1999/02/22-rdf-syntax-ns#"><rdf:Description rdf:about="" xmlns:crs="http://ns.adobe.com/camera-raw-settings/1.0/" crs:PresetType="Normal" crs:Cluster="" crs:UUID="AA3BA35DFC174341A45760860AC49AA0" crs:SupportsAmount2="True" crs:SupportsAmount="True" crs:SupportsColor="True" crs:SupportsMonochrome="True" crs:SupportsHighDynamicRange="True" crs:SupportsNormalDynamicRange="True" crs:SupportsSceneReferred="True" crs:SupportsOutputReferred="True" crs:RequiresRGBTables="False" crs:CameraModelRestriction="" crs:Copyright="" crs:ContactInfo="" crs:Version="17.2" crs:ProcessVersion="15.4" crs:ToneCurveName2012="Custom" crs:HasSettings="True" crs:Contrast2012="-10" crs:Highlights2012="-20" crs:Shadows2012="20" crs:Whites2012="-10" crs:Blacks2012="15" crs:Texture="10" crs:Clarity2012="-10" crs:Dehaze="-5" crs:Vibrance="15" crs:Saturation="5" crs:ParametricShadows="15" crs:ParametricDarks="10" crs:ParametricLights="-10" crs:ParametricHighlights="-5" crs:ParametricShadowSplit="25" crs:ParametricMidtoneSplit="50" crs:ParametricHighlightSplit="75" crs:Sharpness="30" crs:SharpenRadius="1.0" crs:SharpenDetail="20" crs:SharpenEdgeMasking="15" crs:LuminanceSmoothing="20" crs:ColorNoiseReduction="25" crs:ColorNoiseReductionDetail="50" crs:ColorNoiseReductionSmoothness="50" crs:HueAdjustmentRed="5" crs:HueAdjustmentOrange="5" crs:HueAdjustmentYellow="10" crs:HueAdjustmentGreen="-5" crs:HueAdjustmentAqua="-5" crs:HueAdjustmentBlue="0" crs:HueAdjustmentPurple="0" crs:HueAdjustmentMagenta="5" crs:SaturationAdjustmentRed="10" crs:SaturationAdjustmentOrange="15" crs:SaturationAdjustmentYellow="10" crs:SaturationAdjustmentGreen="0" crs:SaturationAdjustmentAqua="-10" crs:SaturationAdjustmentBlue="-5" crs:SaturationAdjustmentPurple="5" crs:SaturationAdjustmentMagenta="10" crs:LuminanceAdjustmentRed="-10" crs:LuminanceAdjustmentOrange="10" crs:LuminanceAdjustmentYellow="15" crs:LuminanceAdjustmentGreen="-5" crs:LuminanceAdjustmentAqua="0" crs:LuminanceAdjustmentBlue="10" crs:LuminanceAdjustmentPurple="0" crs:LuminanceAdjustmentMagenta="5" crs:SplitToningShadowHue="50" crs:SplitToningShadowSaturation="15" crs:SplitToningHighlightHue="35" crs:SplitToningHighlightSaturation="10" crs:SplitToningBalance="20" crs:ColorGradeMidtoneHue="0" crs:ColorGradeMidtoneSat="0" crs:ColorGradeShadowLum="0" crs:ColorGradeMidtoneLum="0" crs:ColorGradeHighlightLum="0" crs:ColorGradeBlending="50" crs:ColorGradeGlobalHue="50" crs:ColorGradeGlobalSat="5" crs:ColorGradeGlobalLum="-5" crs:GrainAmount="15" crs:GrainSize="30" crs:GrainFrequency="50" crs:PostCropVignetteAmount="-20" crs:ShadowTint="10" crs:RedHue="0" crs:RedSaturation="0" crs:GreenHue="0" crs:GreenSaturation="0" crs:BlueHue="0" crs:BlueSaturation="0" crs:CurveRefineSaturation="0" crs:OverrideLookVignette="False" crs:Name="Vintage Summer"><crs:ToneCurvePV2012><rdf:Seq><rdf:li>0, 0</rdf:li><rdf:li>64, 56</rdf:li><rdf:li>128, 128</rdf:li><rdf:li>192, 188</rdf:li><rdf:li>255, 255</rdf:li></rdf:Seq></crs:ToneCurvePV2012><crs:ToneCurvePV2012Red><rdf:Seq><rdf:li>0, 10</rdf:li><rdf:li>64, 60</rdf:li><rdf:li>128, 128</rdf:li><rdf:li>192, 180</rdf:li><rdf:li>255, 240</rdf:li></rdf:Seq></crs:ToneCurvePV2012Red><crs:ToneCurvePV2012Green><rdf:Seq><rdf:li>0, 0</rdf:li><rdf:li>64, 55</rdf:li><rdf:li>128, 125</rdf:li><rdf:li>192, 185</rdf:li><rdf:li>255, 245</rdf:li></rdf:Seq></crs:ToneCurvePV2012Green><crs:ToneCurvePV2012Blue><rdf:Seq><rdf:li>0, 30</rdf:li><rdf:li>64, 75</rdf:li><rdf:li>128, 130</rdf:li><rdf:li>192, 195</rdf:li><rdf:li>255, 255</rdf:li></rdf:Seq></crs:ToneCurvePV2012Blue><crs:PointColors><rdf:Seq><rdf:li>#FFC1A1</rdf:li><rdf:li>#FFE3C8</rdf:li><rdf:li>#FFD8B2</rdf:li><rdf:li>#FFC8A0</rdf:li><rdf:li>#FFB080</rdf:li></rdf:Seq></crs:PointColors></rdf:Description></rdf:RDF></x:xmpmeta>