static/cached/Vintage_Summer2.xmp
<?xml version='1.0' encoding='utf-8'?>
<x:xmpmeta xmlns:x="adobe:ns:meta/" x:xmptk="Adobe XMP Core 7.0-c000 1.000000, 0000/00/00-00:00:00"><rdf:RDF xmlns:rdf="http://www.w3.org/1999/02/22-rdf-syntax-ns#"><rdf:Description rdf:about="" xmlns:crs="http://ns.adobe.com/camera-raw-settings/1.0/" crs:PresetType="Normal" crs:Cluster="" crs:UUID="63E4A8FE39404416918B3FEC0870ED1C" crs:SupportsAmount2="True" crs:SupportsAmount="True" crs:SupportsColor="True" crs:SupportsMonochrome="True" crs:SupportsHighDynamicRange="True" crs:SupportsNormalDynamicRange="True" crs:SupportsSceneReferred="True" crs:SupportsOutputReferred="True" crs:RequiresRGBTables="False" crs:CameraModelRestriction="" crs:Copyright="" crs:ContactInfo="" crs:Version="17.2" crs:ProcessVersion="15.4" crs:ToneCurveName2012="Custom" crs:HasSettings="True" crs:Contrast2012="10" crs:Highlights2012="-20" crs:Shadows2012="15" crs:Whites2012="5" crs:Blacks2012="-10" crs:Texture="0" crs:Clarity2012="10" crs:Dehaze="-5" crs:Vibrance="20" crs:Saturation="10" crs:ParametricShadows="-5" crs:ParametricDarks="0" crs:ParametricLights="5" crs:ParametricHighlights="10" crs:ParametricShadowSplit="25" crs:ParametricMidtoneSplit="50" crs:ParametricHighlightSplit="75" crs:Sharpness="40" crs:SharpenRadius="1.0" crs:SharpenDetail="25" crs:SharpenEdgeMasking="10" crs:LuminanceSmoothing="20" crs:ColorNoiseReduction="25" crs:ColorNoiseReductionDetail="50" crs:ColorNoiseReductionSmoothness="50" crs:HueAdjustmentRed="5" crs:HueAdjustmentOrange="10" crs:HueAdjustmentYellow="-5" crs:HueAdjustmentGreen="-5" crs:HueAdjustmentAqua="0" crs:HueAdjustmentBlue="10" crs:HueAdjustmentPurple="-5" crs:HueAdjustmentMagenta="5" crs:SaturationAdjustmentRed="-10" crs:SaturationAdjustmentOrange="10" crs:SaturationAdjustmentYellow="15" crs:SaturationAdjustmentGreen="0" crs:SaturationAdjustmentAqua="-5" crs:SaturationAdjustmentBlue="10" crs:SaturationAdjustmentPurple="0" crs:SaturationAdjustmentMagenta="5" crs:LuminanceAdjustmentRed="5" crs:LuminanceAdjustmentOrange="10" crs:LuminanceAdjustmentYellow="20" crs:LuminanceAdjustmentGreen="-10" crs:LuminanceAdjustmentAqua="-5" crs:LuminanceAdjustmentBlue="5" crs:LuminanceAdjustmentPurple="0" crs:LuminanceAdjustmentMagenta="5" crs:SplitToningShadowHue="45" crs:SplitToningShadowSaturation="20" crs:SplitToningHighlightHue="60" crs:SplitToningHighlightSaturation="30" crs:SplitToningBalance="0" crs:ColorGradeMidtoneHue="50" crs:ColorGradeMidtoneSat="20" crs:ColorGradeShadowLum="-5" crs:ColorGradeMidtoneLum="10" crs:ColorGradeHighlightLum="5" crs:ColorGradeBlending="50" crs:ColorGradeGlobalHue="0" crs:ColorGradeGlobalSat="0" crs:ColorGradeGlobalLum="0" crs:GrainAmount="30" crs:GrainSize="50" crs:GrainFrequency="50" crs:PostCropVignetteAmount="-15" crs:ShadowTint="10" crs:RedHue="10" crs:RedSaturation="-10" crs:GreenHue="-10" crs:GreenSaturation="5" crs:BlueHue="15" crs:BlueSaturation="10" crs:CurveRefineSaturation="0" crs:OverrideLookVignette="False" crs:Name="Vintage Summer"><crs:ToneCurvePV2012><rdf:Seq><rdf:li>0, 0</rdf:li><rdf:li>128, 130</rdf:li><rdf:li>255, 250</rdf:li></rdf:Seq></crs:ToneCurvePV2012><crs:ToneCurvePV2012Red><rdf:Seq><rdf:li>0, 0</rdf:li><rdf:li>128, 120</rdf:li><rdf:li>255, 255</rdf:li></rdf:Seq></crs:ToneCurvePV2012Red><crs:ToneCurvePV2012Green><rdf:Seq><rdf:li>0, 0</rdf:li><rdf:li>128, 128</rdf:li><rdf:li>255, 245</rdf:li></rdf:Seq></crs:ToneCurvePV2012Green><crs:ToneCurvePV2012Blue><rdf:Seq><rdf:li>0, 0</rdf:li><rdf:li>128, 140</rdf:li><rdf:li>255, 255</rdf:li></rdf:Seq></crs:ToneCurvePV2012Blue><crs:PointColors><rdf:Seq><rdf:li>RGB</rdf:li><rdf:li>Red</rdf:li><rdf:li>Green</rdf:li><rdf:li>Blue</rdf:li></rdf:Seq></crs:PointColors></rdf:Description></rdf:RDF></x:xmpmeta>