static/cached/Vintage_Summer1.xmp
<?xml version='1.0' encoding='utf-8'?>
<x:xmpmeta xmlns:x="adobe:ns:meta/" x:xmptk="Adobe XMP Core 7.0-c000 1.000000, 0000/00/00-00:00:00"><rdf:RDF xmlns:rdf="http://www.w3.org/1999/02/22-rdf-syntax-ns#"><rdf:Description rdf:about="" xmlns:crs="http://ns.adobe.com/camera-raw-settings/1.0/" crs:PresetType="Normal" crs:Cluster="" crs:UUID="88C8B9582AB64CA1A9EA1697DA64FE61" crs:SupportsAmount2="True" crs:SupportsAmount="True" crs:SupportsColor="True" crs:SupportsMonochrome="True" crs:SupportsHighDynamicRange="True" crs:SupportsNormalDynamicRange="True" crs:SupportsSceneReferred="True" crs:SupportsOutputReferred="True" crs:RequiresRGBTables="False" crs:CameraModelRestriction="" crs:Copyright="" crs:ContactInfo="" crs:Version="17.2" crs:ProcessVersion="15.4" crs:ToneCurveName2012="Medium Contrast" crs:HasSettings="True" crs:Contrast2012="-15" crs:Highlights2012="-30" crs:Shadows2012="15" crs:Whites2012="10" crs:Blacks2012="-10" crs:Texture="5" crs:Clarity2012="0" crs:Dehaze="-5" crs:Vibrance="10" crs:Saturation="5" crs:ParametricShadows="0" crs:ParametricDarks="-10" crs:ParametricLights="10" crs:ParametricHighlights="0" crs:ParametricShadowSplit="25" crs:ParametricMidtoneSplit="50" crs:ParametricHighlightSplit="75" crs:Sharpness="30" crs:SharpenRadius="1.0" crs:SharpenDetail="25" crs:SharpenEdgeMasking="10" crs:LuminanceSmoothing="10" crs:ColorNoiseReduction="20" crs:ColorNoiseReductionDetail="50" crs:ColorNoiseReductionSmoothness="50" crs:HueAdjustmentRed="0" crs:HueAdjustmentOrange="-5" crs:HueAdjustmentYellow="5" crs:HueAdjustmentGreen="-5" crs:HueAdjustmentAqua="0" crs:HueAdjustmentBlue="10" crs:HueAdjustmentPurple="0" crs:HueAdjustmentMagenta="0" crs:SaturationAdjustmentRed="-5" crs:SaturationAdjustmentOrange="5" crs:SaturationAdjustmentYellow="10" crs:SaturationAdjustmentGreen="-10" crs:SaturationAdjustmentAqua="-5" crs:SaturationAdjustmentBlue="5" crs:SaturationAdjustmentPurple="0" crs:SaturationAdjustmentMagenta="0" crs:LuminanceAdjustmentRed="10" crs:LuminanceAdjustmentOrange="5" crs:LuminanceAdjustmentYellow="5" crs:LuminanceAdjustmentGreen="-5" crs:LuminanceAdjustmentAqua="0" crs:LuminanceAdjustmentBlue="5" crs:LuminanceAdjustmentPurple="0" crs:LuminanceAdjustmentMagenta="0" crs:SplitToningShadowHue="50" crs:SplitToningShadowSaturation="25" crs:SplitToningHighlightHue="45" crs:SplitToningHighlightSaturation="20" crs:SplitToningBalance="0" crs:ColorGradeMidtoneHue="0" crs:ColorGradeMidtoneSat="0" crs:ColorGradeShadowLum="0" crs:ColorGradeMidtoneLum="0" crs:ColorGradeHighlightLum="0" crs:ColorGradeBlending="50" crs:ColorGradeGlobalHue="0" crs:ColorGradeGlobalSat="0" crs:ColorGradeGlobalLum="0" crs:GrainAmount="15" crs:GrainSize="25" crs:GrainFrequency="50" crs:PostCropVignetteAmount="-20" crs:ShadowTint="10" crs:RedHue="0" crs:RedSaturation="0" crs:GreenHue="0" crs:GreenSaturation="0" crs:BlueHue="0" crs:BlueSaturation="0" crs:CurveRefineSaturation="0" crs:OverrideLookVignette="False" crs:Name="Vintage Summer"><crs:ToneCurvePV2012><rdf:Seq><rdf:li>0, 0</rdf:li><rdf:li>85, 79</rdf:li><rdf:li>156, 146</rdf:li><rdf:li>255, 255</rdf:li></rdf:Seq></crs:ToneCurvePV2012><crs:ToneCurvePV2012Red><rdf:Seq><rdf:li>0, 0</rdf:li><rdf:li>255, 255</rdf:li></rdf:Seq></crs:ToneCurvePV2012Red><crs:ToneCurvePV2012Green><rdf:Seq><rdf:li>0, 0</rdf:li><rdf:li>255, 255</rdf:li></rdf:Seq></crs:ToneCurvePV2012Green><crs:ToneCurvePV2012Blue><rdf:Seq><rdf:li>0, 0</rdf:li><rdf:li>255, 255</rdf:li></rdf:Seq></crs:ToneCurvePV2012Blue><crs:PointColors><rdf:Seq><rdf:li>165, 42, 42, 255</rdf:li></rdf:Seq></crs:PointColors></rdf:Description></rdf:RDF></x:xmpmeta>